!!!!SEGMENT: pl-kk--kk-i-477--003_vogel--missa-solemnis-qui-tollis.krn
!!!cenid: 17xx:1900
!!!COM: Vogel
!!!COM-rismid: pe30003636
!!!CDT:
!!!CNT:
!!!OPR: Missa solemnis
!!!OTL: Qui tollis
!!!OMV: 003
!!!PDT:
!!!AGN: Sacred; Mass
!!!SMS-siglum: PL-Kk
!!!SMS-shelfmark: Kk.I.477
!!!SMS-shelfwork: 001-003 M
!!!SMS-variant:
!!!SMS-altvar:
!!!NIFC-rismid: 1001141397
!!!URL-scan: http://repozytorium.nifc.pl/skany/pl-kk-nut--i-477
!!!ONB-nifc: UWAGA: części Mszy: 1. Kyrie, 2. Gloria, 3. Qui tollis, 4. Quoniam, 5. Cum Sancto, 6. Credo, 7. Et incarnatus, 8. Et resurrexit, 9. Sanctus, 10. Benedictus, 11. Agnus Dei
!!!key:
**kern	**fba	**dynam	**kern	**dynam	**kern	**dynam	**kern	**dynam	**kern	**text	**dynam	**kern	**text	**dynam	**kern	**text	**dynam	**kern	**text	**dynam	**kern	**kern	**dynam	**kern	**kern	**kern	**dynam	**kern	**dynam
*part14	*	*part14	*part13	*part13	*part12	*part12	*part11	*part11	*part10	*part10	*part10	*part9	*part9	*part9	*part8	*part8	*part8	*part7	*part7	*part7	*part6	*part5	*part5	*part4	*part3	*part2	*part2	*part1	*part1
*	*	*	*group4	*	*group4	*	*group4	*	*group3	*	*	*group3	*	*	*group3	*	*	*group3	*	*	*	*group2	*	*group2	*group2	*group1	*	*group1	*
*staff14	*	*	*staff13	*	*staff12	*	*staff11	*	*staff10	*staff10	*	*staff9	*staff9	*	*staff8	*staff8	*	*staff7	*staff7	*	*staff6	*staff5	*	*staff4	*staff3	*staff2	*	*staff1	*
*Iorgan	*	*	*Iviola	*	*Ivioln	*	*Ivioln	*	*Iempty	*	*	*Itenor	*	*	*Ialto	*	*	*Ivox	*	*	*Itimpa	*Iempty	*	*Iempty	*Iempty	*Ioboe	*	*Ioboe	*
*I"Organo.	*	*	*I"Viola	*	*I"Violino II.da	*	*I"Violino I:mo	*	*I"Baſso.	*	*	*I"Tenore.	*	*	*I"Alto.	*	*	*I"Canto.	*	*	*I"Tympani in C.	*I"Clarino 2:do in C.	*	*I"Clarino Primo in C.	*I"Clarino Principale. in C.	*I"Oboa II.da	*	*I"Oboa I.mo	*
*I'org	*	*	*I'vla	*	*I'vl II	*	*I'vl I	*	*I'B	*	*	*I'T	*	*	*I'A	*	*	*I'S	*	*	*I'timp	*I'clno II	*	*I'clno I	*I'clno princ	*I'ob II	*	*I'ob I	*
*clefF4	*	*	*clefC3	*	*clefG2	*	*clefG2	*	*clefF4	*	*	*clefC4	*	*	*clefC3	*	*	*clefC1	*	*	*clefF4	*clefG2	*	*clefG2	*clefG2	*clefG2	*	*clefG2	*
*k[f#]	*	*	*k[f#]	*	*k[f#]	*	*k[f#]	*	*k[f#]	*	*	*k[f#]	*	*	*k[f#]	*	*	*k[f#]	*	*	*k[f#]	*k[f#]	*	*k[f#]	*k[f#]	*k[f#]	*	*k[f#]	*
*e:	*	*	*e:	*	*e:	*	*e:	*	*e:	*	*	*e:	*	*	*e:	*	*	*e:	*	*	*e:	*e:	*	*e:	*e:	*e:	*	*e:	*
*M3/4	*	*	*M3/4	*	*M3/4	*	*M3/4	*	*M3/4	*	*	*M3/4	*	*	*M3/4	*	*	*M3/4	*	*	*M3/4	*M3/4	*	*M3/4	*M3/4	*M3/4	*	*M3/4	*
=1	=1	=1	=1	=1	=1	=1	=1	=1	=1	=1	=1	=1	=1	=1	=1	=1	=1	=1	=1	=1	=1	=1	=1	=1	=1	=1	=1	=1	=1
*	*	*	*	*below	*	*	*	*	*all\right	*	*	*all\right	*	*	*all\right	*	*	*all\right	*	*	*	*	*	*	*	*	*	*	*
!	!	!	!	!	!	!	!	!	!	!	!	!	!	!	!	!	!	!	!	!	!LO:TX:a:t=51.	!LO:TX:a:t=51.	!	!LO:TX:a:t=51..	!	!LO:TX:a:t=3.	!	!	!
!LO:TX:a:t=And=te	!	!LO:DY:t=pia&colon;	!LO:TX:a:t=Andante.	!LO:DY:t=po,	!LO:TX:a:t=Andante	!LO:DY:a	!LO:TX:a:t=Andante	!LO:DY:a:t=po.	!LO:TX:a:t=and&colon;	!	!	!	!	!	!LO:TX:a:t=and&colon;	!	!	!LO:TX:a:t=and=.te	!	!	!LO:TX:a:t=and.te	!LO:TX:a:t=and=te	!	!LO:TX:a:t=and=te	!LO:TX:a:t=Quitollis&colon; et Quoniam Tacet&colon;	!LO:TX:a:t=Andte.	!	!LO:TX:a:t=andte	!
!	!	!	!	!	!	!	!	!	!LO:N:vis=00	!	!	!LO:N:vis=00	!	!	!LO:N:vis=00	!	!	!LO:N:vis=00	!	!	!	!	!	!	!	!LO:N:vis=0	!	!LO:N:vis=0	!
4E\|	.	p	4e\	p	4e/|	p	4e/|	p	0.r	.	.	0.r	.	.	0.r	.	.	0.r	.	.	2.r	2.r	.	2.r	2.ryy	1.r	.	1.r	.
4G\|	.	.	4g\	.	4g/|	.	4g/|	.	.	.	.	.	.	.	.	.	.	.	.	.	.	.	.	.	.	.	.	.	.
8.r	.	.	8r	.	8r	.	8r	.	.	.	.	.	.	.	.	.	.	.	.	.	.	.	.	.	.	.	.	.	.
.	.	.	16r	.	16r	.	16r	f	.	.	.	.	.	.	.	.	.	.	.	.	.	.	.	.	.	.	.	.	.
!	!	!LO:DY:t=for&colon;	!	!LO:DY:t=fo	!	!LO:DY:a	!	!	!	!	!	!	!	!	!	!	!	!	!	!	!	!	!	!	!	!	!	!	!
16E\	.	f	16e\	f	16e/	f	16e/	.	.	.	.	.	.	.	.	.	.	.	.	.	.	.	.	.	.	.	.	.	.
=2	=2	=2	=2	=2	=2	=2	=2	=2	=2	=2	=2	=2	=2	=2	=2	=2	=2	=2	=2	=2	=2	=2	=2	=2	=2	=2	=2	=2	=2
4C/	6	.	4e\	.	4e/|	.	4a/|	.	.	.	.	.	.	.	.	.	.	.	.	.	2.r	2.r	.	2.r	2.ryy	.	.	.	.
4AA/	.	.	4e\	.	4a/|	.	4cc/|	.	.	.	.	.	.	.	.	.	.	.	.	.	.	.	.	.	.	.	.	.	.
8r	.	.	8.r	.	8r	.	8r	.	.	.	.	.	.	.	.	.	.	.	.	.	.	.	.	.	.	.	.	.	.
16r	.	.	.	.	16r	.	16r	.	.	.	.	.	.	.	.	.	.	.	.	.	.	.	.	.	.	.	.	.	.
!	!	!LO:DY:t=po.	!	!LO:DY:t=p&colon;	!	!LO:DY:a	!	!LO:DY:a	!	!	!	!	!	!	!	!	!	!	!	!	!	!	!	!	!	!	!	!	!
16AA/	n	p	16a\	p	16e/	p	16cc\|	p	.	.	.	.	.	.	.	.	.	.	.	.	.	.	.	.	.	.	.	.	.
=3	=3	=3	=3	=3	=3	=3	=3	=3	=3	=3	=3	=3	=3	=3	=3	=3	=3	=3	=3	=3	=3	=3	=3	=3	=3	=3	=3	=3	=3
4BB/	9 #_	.	4f#\	.	4d#X/	.	(8cc\L	.	.	.	.	.	.	.	.	.	.	.	.	.	2.r	2.r	.	2.r	2.ryy	2.r	.	2.r	.
.	.	.	.	.	.	.	8b\J)	.	.	.	.	.	.	.	.	.	.	.	.	.	.	.	.	.	.	.	.	.	.
4BB/	8 x	.	4f#\	.	4d#/	.	4b\|	.	.	.	.	.	.	.	.	.	.	.	.	.	.	.	.	.	.	.	.	.	.
8r	.	.	8.r	.	8r	.	8r	.	.	.	.	.	.	.	.	.	.	.	.	.	.	.	.	.	.	.	.	.	.
16r	.	.	.	.	16r	f	16r	f	.	.	.	.	.	.	.	.	.	.	.	.	.	.	.	.	.	.	.	.	.
!	!	!LO:DY:t=for&colon;	!	!LO:DY:t=fo.	!	!	!	!	!	!	!	!	!	!	!	!	!	!	!	!	!	!	!	!	!	!	!	!	!
16D#X/	6 5	f	16B/	f	16f#/|	.	16a/|	.	.	.	.	.	.	.	.	.	.	.	.	.	.	.	.	.	.	.	.	.	.
=4	=4	=4	=4	=4	=4	=4	=4	=4	=4	=4	=4	=4	=4	=4	=4	=4	=4	=4	=4	=4	=4	=4	=4	=4	=4	=4	=4	=4	=4
!	!	!	!	!	!	!	!LO:TX:a:t=P:problem:mixed beam	!	!	!	!	!	!	!	!	!	!	!	!	!	!	!	!	!	!	!	!	!	!
!LO:TX:a:t=P:problem:mixed beam	!	!	!	!	!	!	!	!	!	!	!	!	!	!	!	!	!	!	!	!	!	!	!	!	!	!	!	!	!
8E\L	.	.	8B/L	.	8e/L|	.	8g/L|	.	.	.	.	.	.	.	.	.	.	.	.	.	2.r	2.r	.	2.r	2.ryy	4r	.	4r	.
8G\	.	.	8B/	.	8B/|	.	8ee\|	.	.	.	.	.	.	.	.	.	.	.	.	.	.	.	.	.	.	.	.	.	.
!	!	!LO:DY:t=po.	!	!	!	!	!	!	!	!	!	!	!	!	!	!	!	!	!	!	!	!	!	!	!	!	!	!	!LO:DY:t=p&colon;
8B\	#	p	8B/J	.	8f#/J|	.	8dd#X\J|	.	.	.	.	.	.	.	.	.	.	.	.	.	.	.	.	.	.	8r	.	8r	p
!	!	!	!	!LO:DY:t=p&colon;	!	!	!	!	!	!	!	!	!	!	!	!	!	!	!	!	!	!	!	!	!	!	!LO:DY:t=p&colon;	!	!
(8BB/	.	.	(8d#X\L	p	8r	.	8r	.	.	.	.	.	.	.	.	.	.	.	.	.	.	.	.	.	.	(8dd#X\L	p	(8bb\L	.
8C#X/	.	.	8e\	.	4r	.	4r	.	.	.	.	.	.	.	.	.	.	.	.	.	.	.	.	.	.	8ee\	.	8aa#X\	.
8D#X/J)	.	.	8f#\J)	.	.	.	.	.	.	.	.	.	.	.	.	.	.	.	.	.	.	.	.	.	.	8ff#X\J)	.	8aan\J)	.
!LO:SIC:v:t:=custos E	!	!	!	!	!	!	!	!	!	!	!	!	!	!	!	!	!	!	!	!	!	!	!	!	!	!	!	!	!
!LO:LB:g=original	!	!	!LO:LB:g=original	!	!	!	!	!	!	!	!	!	!	!	!	!	!	!	!	!	!	!	!	!	!	!	!	!	!
=5	=5	=5	=5	=5	=5	=5	=5	=5	=5	=5	=5	=5	=5	=5	=5	=5	=5	=5	=5	=5	=5	=5	=5	=5	=5	=5	=5	=5	=5
!	!	!	!	!	!	!LO:DY:a	!	!LO:DY:a	!LO:N:vis=00	!	!	!LO:N:vis=00	!	!	!LO:N:vis=00	!	!	!LO:N:vis=00	!	!	!	!	!	!	!	!	!	!	!
8E\	.	.	8g\	.	8B/	p	4e/	p	0.r	.	.	0.r	.	.	0.r	.	.	0.r	.	.	2.r	2.r	.	2.r	2.ryy	4ee\	.	4gg\	.
8r	.	.	8r	.	8r	.	.	.	.	.	.	.	.	.	.	.	.	.	.	.	.	.	.	.	.	.	.	.	.
.	.	.	.	.	.	.	(8qa/	.	.	.	.	.	.	.	.	.	.	.	.	.	.	.	.	.	.	.	.	.	.
8E\	5	.	8B\	.	8e/	.	8g/L	.	.	.	.	.	.	.	.	.	.	.	.	.	.	.	.	.	.	4r	.	4r	.
8r	.	.	8r	.	8r	.	16f#/L	.	.	.	.	.	.	.	.	.	.	.	.	.	.	.	.	.	.	.	.	.	.
.	.	.	.	.	.	.	16e/JJ)	.	.	.	.	.	.	.	.	.	.	.	.	.	.	.	.	.	.	.	.	.	.
!	!	!	!	!	!LO:LB:g=original	!	!LO:LB:g=original	!	!	!	!	!	!	!	!	!	!	!	!	!	!	!	!	!	!	!	!	!	!
8E\	6	.	8e\	.	8g/	.	8.cc\L	.	.	.	.	.	.	.	.	.	.	.	.	.	.	.	.	.	.	4r	.	4r	.
8r	.	.	8r	.	8r	.	.	.	.	.	.	.	.	.	.	.	.	.	.	.	.	.	.	.	.	.	.	.	.
.	.	.	.	.	.	.	16cc\Jk	.	.	.	.	.	.	.	.	.	.	.	.	.	.	.	.	.	.	.	.	.	.
=6	=6	=6	=6	=6	=6	=6	=6	=6	=6	=6	=6	=6	=6	=6	=6	=6	=6	=6	=6	=6	=6	=6	=6	=6	=6	=6	=6	=6	=6
8D#X/	7	.	8d#X\	.	8f#X/	.	4cc\	.	.	.	.	.	.	.	.	.	.	.	.	.	2.r	2.r	.	2.r	2.ryy	4r	.	4r	.
8r	.	.	8r	.	8r	.	.	.	.	.	.	.	.	.	.	.	.	.	.	.	.	.	.	.	.	.	.	.	.
8D#/	6	.	8d#\	.	8f#/	.	(16b/LL	.	.	.	.	.	.	.	.	.	.	.	.	.	.	.	.	.	.	4r	.	4r	.
.	.	.	.	.	.	.	16cc/	.	.	.	.	.	.	.	.	.	.	.	.	.	.	.	.	.	.	.	.	.	.
8r	.	.	8r	.	8r	.	16a/	.	.	.	.	.	.	.	.	.	.	.	.	.	.	.	.	.	.	.	.	.	.
.	.	.	.	.	.	.	16b/JJ)	.	.	.	.	.	.	.	.	.	.	.	.	.	.	.	.	.	.	.	.	.	.
8E\L	n	.	8B/L	.	(8e/L	.	16g/LL	.	.	.	.	.	.	.	.	.	.	.	.	.	.	.	.	.	.	(8ee\L	.	8gg'\L	.
.	.	.	.	.	.	.	(16b/	.	.	.	.	.	.	.	.	.	.	.	.	.	.	.	.	.	.	.	.	.	.
8BB\J	#	.	8B/J	.	8d#X/J)	.	16f#/	.	.	.	.	.	.	.	.	.	.	.	.	.	.	.	.	.	.	8dd#X\J)	.	8ff#'\J	.
.	.	.	.	.	.	.	16b/JJ)	.	.	.	.	.	.	.	.	.	.	.	.	.	.	.	.	.	.	.	.	.	.
=7	=7	=7	=7	=7	=7	=7	=7	=7	=7	=7	=7	=7	=7	=7	=7	=7	=7	=7	=7	=7	=7	=7	=7	=7	=7	=7	=7	=7	=7
4E\	.	.	8B/	.	8e/	.	8g/	.	.	.	.	.	.	.	.	.	.	.	.	.	2.r	2.r	.	2.r	2.ryy	4ee\	.	4gg\	.
!LO:TX:b:t=Viol	!	!	!	!	!	!	!	!	!	!	!	!	!	!	!	!	!	!	!	!	!	!	!	!	!	!	!	!	!
.	.	.	8r	.	8r	.	8r	.	.	.	.	.	.	.	.	.	.	.	.	.	.	.	.	.	.	.	.	.	.
8qqA/	.	.	.	.	.	.	.	.	.	.	.	.	.	.	.	.	.	.	.	.	.	.	.	.	.	.	.	.	.
8G\L	.	.	4r	.	8B/	.	8ee\	.	.	.	.	.	.	.	.	.	.	.	.	.	.	.	.	.	.	4r	.	4r	.
16F#\L	.	.	.	.	8r	.	8r	.	.	.	.	.	.	.	.	.	.	.	.	.	.	.	.	.	.	.	.	.	.
16E\JJ	.	.	.	.	.	.	.	.	.	.	.	.	.	.	.	.	.	.	.	.	.	.	.	.	.	.	.	.	.
8.c\L	.	.	4r	.	8g/	.	8ee\	.	.	.	.	.	.	.	.	.	.	.	.	.	.	.	.	.	.	4r	.	4r	.
.	.	.	.	.	8r	.	8r	.	.	.	.	.	.	.	.	.	.	.	.	.	.	.	.	.	.	.	.	.	.
16c\Jk	.	.	.	.	.	.	.	.	.	.	.	.	.	.	.	.	.	.	.	.	.	.	.	.	.	.	.	.	.
=8	=8	=8	=8	=8	=8	=8	=8	=8	=8	=8	=8	=8	=8	=8	=8	=8	=8	=8	=8	=8	=8	=8	=8	=8	=8	=8	=8	=8	=8
4c\	.	.	4r	.	8f#/	.	8dd#X\	.	.	.	.	.	.	.	.	.	.	.	.	.	2.r	2.r	.	2.r	2.ryy	2.r	.	2.r	.
.	.	.	.	.	8r	.	8r	.	.	.	.	.	.	.	.	.	.	.	.	.	.	.	.	.	.	.	.	.	.
(16B\LL	.	.	4r	.	8f#/	.	8dd#\	.	.	.	.	.	.	.	.	.	.	.	.	.	.	.	.	.	.	.	.	.	.
16c\	.	.	.	.	.	.	.	.	.	.	.	.	.	.	.	.	.	.	.	.	.	.	.	.	.	.	.	.	.
16A\)	.	.	.	.	8r	.	8r	.	.	.	.	.	.	.	.	.	.	.	.	.	.	.	.	.	.	.	.	.	.
16B\JJ	.	.	.	.	.	.	.	.	.	.	.	.	.	.	.	.	.	.	.	.	.	.	.	.	.	.	.	.	.
(16G\LL	.	.	8B/L	.	8b/L	.	(8ee\L	.	.	.	.	.	.	.	.	.	.	.	.	.	.	.	.	.	.	.	.	.	.
16B\	.	.	.	.	.	.	.	.	.	.	.	.	.	.	.	.	.	.	.	.	.	.	.	.	.	.	.	.	.
16F#\	.	.	8B/J	.	8a/J	.	8dd#X\J)	.	.	.	.	.	.	.	.	.	.	.	.	.	.	.	.	.	.	.	.	.	.
16B\JJ)	.	.	.	.	.	.	.	.	.	.	.	.	.	.	.	.	.	.	.	.	.	.	.	.	.	.	.	.	.
=9	=9	=9	=9	=9	=9	=9	=9	=9	=9	=9	=9	=9	=9	=9	=9	=9	=9	=9	=9	=9	=9	=9	=9	=9	=9	=9	=9	=9	=9
!	!	!	!	!	!	!	!	!LO:DY:a	!LO:N:vis=00	!	!	!LO:N:vis=00	!	!	!LO:N:vis=00	!	!	!LO:N:vis=00	!	!	!	!	!	!	!	!	!LO:DY:a:t=for	!	!
8E\	.	.	8B/	.	8g/	.	8ee\L	f	0.r	.	.	0.r	.	.	0.r	.	.	0.r	.	.	2.r	2.r	.	2.r	2.ryy	4r	f	4r	.
.	.	.	.	.	.	.	8qcc/	.	.	.	.	.	.	.	.	.	.	.	.	.	.	.	.	.	.	.	.	.	.
8r	.	.	8r	.	8r	.	16b\L	.	.	.	.	.	.	.	.	.	.	.	.	.	.	.	.	.	.	.	.	.	.
!	!	!	!	!LO:DY:t=fo	!	!	!	!	!	!	!	!	!	!	!	!	!	!	!	!	!	!	!	!	!	!	!	!	!
.	.	.	.	f	.	f	(32a\L	.	.	.	.	.	.	.	.	.	.	.	.	.	.	.	.	.	.	.	.	.	.
.	.	.	.	.	.	.	32b\JJJ)	.	.	.	.	.	.	.	.	.	.	.	.	.	.	.	.	.	.	.	.	.	.
!	!	!	!	!	!	!	!	!	!	!	!	!	!	!	!	!	!	!	!	!	!	!	!	!	!	!	!	!	!LO:DY:t=for
8E\L	.	.	8e\L	.	8b/L|	.	8gg\L	.	.	.	.	.	.	.	.	.	.	.	.	.	.	.	.	.	.	8g/L|	.	8b\L	f
8F#X\	6\	.	8B\	.	8a/|	.	8dd#X\	.	.	.	.	.	.	.	.	.	.	.	.	.	.	.	.	.	.	8a/J|	.	8dd#X\J	.
8G\	6	.	8B\	.	8b/|	.	(8ee\	.	.	.	.	.	.	.	.	.	.	.	.	.	.	.	.	.	.	4b/	.	4ee\	.
8G#X\J	6 5	.	8e\J	.	8b/J|	.	8ddn\J)	.	.	.	.	.	.	.	.	.	.	.	.	.	.	.	.	.	.	.	.	.	.
=10	=10	=10	=10	=10	=10	=10	=10	=10	=10	=10	=10	=10	=10	=10	=10	=10	=10	=10	=10	=10	=10	=10	=10	=10	=10	=10	=10	=10	=10
8A\	n	.	8e\	.	8a/	.	8cc\L	.	.	.	.	.	.	.	.	.	.	.	.	.	2.r	2.r	.	2.r	2.ryy	8cc\	.	8ee\	.
.	.	.	.	.	.	.	8qee/	.	.	.	.	.	.	.	.	.	.	.	.	.	.	.	.	.	.	.	.	.	.
8r	.	.	8r	.	8r	.	16dd\L	.	.	.	.	.	.	.	.	.	.	.	.	.	.	.	.	.	.	8r	.	8r	.
.	.	.	.	.	.	.	(32cc\L	.	.	.	.	.	.	.	.	.	.	.	.	.	.	.	.	.	.	.	.	.	.
.	.	.	.	.	.	.	32dd\JJJ)	.	.	.	.	.	.	.	.	.	.	.	.	.	.	.	.	.	.	.	.	.	.
!LO:LB:g=original	!	!	!	!	!LO:TX:a:t=P:problem:mixed beam	!	!	!	!	!	!	!	!	!	!	!	!	!	!	!	!	!	!	!	!	!	!	!	!
8AA/L	.	.	8A/L	.	8cc\L	.	8ee\|	.	.	.	.	.	.	.	.	.	.	.	.	.	.	.	.	.	.	8cc\L	.	8ee\L	.
!	!	!	!	!	!	!	!LO:LB:g=original	!	!	!	!	!	!	!	!	!	!	!	!	!	!	!	!	!	!	!	!	!	!
8BB/	6\	.	8d/	.	8e/	.	8g#X/L|	.	.	.	.	.	.	.	.	.	.	.	.	.	.	.	.	.	.	8dd\J	.	8aa#X\J	.
8C/	6	.	8c/	.	8e/	.	8a/|	.	.	.	.	.	.	.	.	.	.	.	.	.	.	.	.	.	.	4ee\	.	4aa#\	.
8AA/J	n	.	8A/J	.	8e/J	.	8b/J|	.	.	.	.	.	.	.	.	.	.	.	.	.	.	.	.	.	.	.	.	.	.
!	!	!	!LO:LB:g=original	!	!	!	!	!	!	!	!	!	!	!	!	!	!	!	!	!	!	!	!	!	!	!	!	!	!
=11	=11	=11	=11	=11	=11	=11	=11	=11	=11	=11	=11	=11	=11	=11	=11	=11	=11	=11	=11	=11	=11	=11	=11	=11	=11	=11	=11	=11	=11
*tremolo	*	*	*	*	*	*	*	*	*	*	*	*	*	*	*	*	*	*	*	*	*	*	*	*	*	*	*	*2\right	*
!	!	!LO:DY:t=po	!	!LO:DY:t=p&colon;	!	!LO:DY:a	!	!LO:DY:a	!	!	!	!	!	!	!	!	!	!	!	!	!	!	!	!	!	!	!LO:DY:a:t=p&colon;	!	!LO:DY:t=po
8BB/L	x 4	p	8B/	p	8e/L	p	8.f#/L	p	.	.	.	.	.	.	.	.	.	.	.	.	2.r	2.r	.	2.r	2.ryy	4ee\	p	2.ff#X\	p
8BB/	5 x	.	8r	.	8e/J	.	.	.	.	.	.	.	.	.	.	.	.	.	.	.	.	.	.	.	.	.	.	.	.
.	.	.	.	.	.	.	16f#/Jk	.	.	.	.	.	.	.	.	.	.	.	.	.	.	.	.	.	.	.	.	.	.
*	*	*	*	*	*tremolo	*	*	*	*	*	*	*	*	*	*	*	*	*	*	*	*	*	*	*	*	*2\right	*	*	*
8BB/	x #3	.	8F#/	.	8d#X/L	.	[4b/	.	.	.	.	.	.	.	.	.	.	.	.	.	.	.	.	.	.	2dd#X\	.	.	.
8BB/	.	.	8r	.	8d#X/	.	.	.	.	.	.	.	.	.	.	.	.	.	.	.	.	.	.	.	.	.	.	.	.
8BB/	.	.	8F#/	.	8d#X/	.	16b/LL]	.	.	.	.	.	.	.	.	.	.	.	.	.	.	.	.	.	.	.	.	.	.
.	.	.	.	.	.	.	(16a/	.	.	.	.	.	.	.	.	.	.	.	.	.	.	.	.	.	.	.	.	.	.
8BB/J	.	.	8r	.	8d#X/J	.	16g/)	.	.	.	.	.	.	.	.	.	.	.	.	.	.	.	.	.	.	.	.	.	.
.	.	.	.	.	.	.	16f#/JJ	.	.	.	.	.	.	.	.	.	.	.	.	.	.	.	.	.	.	.	.	.	.
*Xtremolo	*	*	*	*	*Xtremolo	*	*	*	*	*	*	*	*	*	*	*	*	*	*	*	*	*	*	*	*	*	*	*	*
!	!	!	!	!	!LO:LB:g=original	!	!	!	!	!	!	!	!	!	!	!	!	!	!	!	!	!	!	!	!	!LO:LB:g=original	!	!LO:LB:g=original	!
=12	=12	=12	=12	=12	=12	=12	=12	=12	=12	=12	=12	=12	=12	=12	=12	=12	=12	=12	=12	=12	=12	=12	=12	=12	=12	=12	=12	=12	=12
8E\L	.	.	8B/	.	8.G/L	.	8.e/L	.	.	.	.	.	.	.	.	.	.	.	.	.	2.r	2.r	.	2.r	2.ryy	8ee\	.	8gg\	.
8E\	.	.	8r	.	.	.	.	.	.	.	.	.	.	.	.	.	.	.	.	.	.	.	.	.	.	8r	.	8r	.
.	.	.	.	.	16B/Jk	.	16g/Jk	.	.	.	.	.	.	.	.	.	.	.	.	.	.	.	.	.	.	.	.	.	.
8E\	.	.	8B/L	.	8G/L	.	8e/L|	.	.	.	.	.	.	.	.	.	.	.	.	.	.	.	.	.	.	8g/L|	.	8ee\L	.
8E\J	.	.	8B/J	.	8G/J	.	8e/J|	.	.	.	.	.	.	.	.	.	.	.	.	.	.	.	.	.	.	8g/J|	.	8ee\J	.
!LO:TX:a:t=T&colon;	!	!	!	!	!	!	!	!	!	!	!	!	!	!	!	!	!	!	!	!	!	!	!	!	!	!	!	!	!
4E\	.	.	4B/	.	4G/	.	4e/|	.	.	.	.	.	.	.	.	.	.	.	.	.	.	.	.	.	.	4g/|	.	4ee\	.
=13	=13	=13	=13	=13	=13	=13	=13	=13	=13	=13	=13	=13	=13	=13	=13	=13	=13	=13	=13	=13	=13	=13	=13	=13	=13	=13	=13	=13	=13
!	!	!LO:DY:t=for&colon;	!	!LO:DY:t=fo	!	!LO:DY:a	!	!LO:DY:a	!LO:TX:a:t=T&colon;	!	!	!LO:TX:a:t=T&colon;	!	!	!LO:TX:a:t=T&colon;	!	!	!LO:TX:a:t=T.	!	!	!	!	!	!	!	!	!LO:DY:a:t=for	!	!
4E\	.	f	4e\	f	4g/	f	4b\|	f	4E\	Qui	.	4e\	Qui	.	4g\	Qui	.	4b\	Qui	.	2.r	2.r	.	2.r	2.ryy	2.g/	f	2.b\	.
4G\	6	.	4e\	.	8.B/L	.	4ee\|	.	4E\	tol-	.	4e\	tol-	.	4g\	tol-	.	4b\	tol-	.	.	.	.	.	.	.	.	.	.
.	.	.	.	.	16e/K	.	.	.	.	.	.	.	.	.	.	.	.	.	.	.	.	.	.	.	.	.	.	.	.
8r	.	.	8.r	.	8.g/	.	8r	.	8E\	-lis	.	8e\	-lis	.	8g\	-lis	.	8b\	-lis	.	.	.	.	.	.	.	.	.	.
16r	.	.	.	.	.	.	16r	.	8E\	pec-	.	8e\	pec-	.	8g\	pec-	.	8b\	pec-	.	.	.	.	.	.	.	.	.	.
16E\	.	.	16e\	.	16g/Jk	.	16b\|	.	.	.	.	.	.	.	.	.	.	.	.	.	.	.	.	.	.	.	.	.	.
=14	=14	=14	=14	=14	=14	=14	=14	=14	=14	=14	=14	=14	=14	=14	=14	=14	=14	=14	=14	=14	=14	=14	=14	=14	=14	=14	=14	=14	=14
4C/	6	.	4A/	.	4e/	.	4cc\|	.	4C/	-ca-	.	4e\	-ca-	.	4a\	-ca-	.	4cc\	-ca-	.	2.r	2.r	.	2.r	2.ryy	2.a/	.	2.cc\	.
4AA/	.	.	4E/	.	8.cc/L	.	4aa\|	.	4AA/	-ta	.	4e\	-ta	.	4a\	-ta	.	4cc\	-ta	.	.	.	.	.	.	.	.	.	.
.	.	.	.	.	16a/K	.	.	.	.	.	.	.	.	.	.	.	.	.	.	.	.	.	.	.	.	.	.	.	.
8r	.	.	8.r	.	8.e/	.	8r	.	4A\	q(ui)	.	4e\	qui	.	4a\	qui	.	4cc\	qui	.	.	.	.	.	.	.	.	.	.
16r	.	.	.	.	.	.	16r	.	.	.	.	.	.	.	.	.	.	.	.	.	.	.	.	.	.	.	.	.	.
16A\	.	.	16A/	.	16e/Jk	.	16cc\|	.	.	.	.	.	.	.	.	.	.	.	.	.	.	.	.	.	.	.	.	.	.
=15	=15	=15	=15	=15	=15	=15	=15	=15	=15	=15	=15	=15	=15	=15	=15	=15	=15	=15	=15	=15	=15	=15	=15	=15	=15	=15	=15	=15	=15
4AA/	+4r_ 2_	.	4A/	.	4f#/	.	4dd#X\|	.	4A\	tol-	.	4f#\	tol-	.	4b\	tol-	.	4dd#X\	tol-	.	2.r	2.r	.	2.r	2.ryy	2.f#/	.	2.dd#X\	.
4A\	.	.	4F#/	.	8.dd#X/L	.	4bb\|	.	8A\	-lis	.	8f#\	-lis	.	8b\	-lis	.	8dd#\	-lis	.	.	.	.	.	.	.	.	.	.
.	.	.	.	.	.	.	.	.	8A\	pec-	.	8f#\	pec-	.	8b\	pec-	.	8dd#\	pec-	.	.	.	.	.	.	.	.	.	.
.	.	.	.	.	16b/K	.	.	.	.	.	.	.	.	.	.	.	.	.	.	.	.	.	.	.	.	.	.	.	.
8r	.	.	8.r	.	8.f#/	.	8r	.	8A\	-ca-	.	8f#\	-ca-	.	8b\	-ca-	.	8dd#\	-ca-	.	.	.	.	.	.	.	.	.	.
16r	.	.	.	.	.	.	16r	.	8A\	-ta	.	8f#\	-ta	.	8b\	-ta	.	8dd#\	-ta	.	.	.	.	.	.	.	.	.	.
16A\	x x	.	16F#/	.	16b/Jk	.	16dd#X\|	.	.	.	.	.	.	.	.	.	.	.	.	.	.	.	.	.	.	.	.	.	.
=16	=16	=16	=16	=16	=16	=16	=16	=16	=16	=16	=16	=16	=16	=16	=16	=16	=16	=16	=16	=16	=16	=16	=16	=16	=16	=16	=16	=16	=16
4G\	6	.	4E/	.	4b\	.	4ee\	.	4G\	mun-	.	4e\	mun	.	(8b\L	mun-	.	(8.ee\L	mun-	.	2.r	2.r	.	2.r	2.ryy	4g/	.	4ee\	.
.	.	.	.	.	.	.	.	.	.	.	.	.	.	.	8g\J)	.	.	.	.	.	.	.	.	.	.	.	.	.	.
.	.	.	.	.	.	.	.	.	.	.	.	.	.	.	.	.	.	16b\Jk)	.	.	.	.	.	.	.	.	.	.	.
!LO:N:vis=4	!	!	!	!	!	!LO:DY:a	!	!	!	!	!	!	!	!	!	!	!	!	!	!	!	!	!	!	!	!	!	!	!
8E\L	.	.	8E/L	.	8B/L	p	8g/L|	.	4E\	-di	.	4e\	di	.	4g\	-di	.	4b\	-di	.	.	.	.	.	.	4g/	.	4ee\	.
8E\|	.	.	8E/	.	8e/	.	8e/|	.	.	.	.	.	.	.	.	.	.	.	.	.	.	.	.	.	.	.	.	.	.
!	!	!	!	!LO:DY:t=p&colon;	!	!	!	!	!	!	!	!	!	!	!	!	!	!	!	!	!	!	!	!	!	!	!	!	!
8G\|	.	.	8G/	p	8g/	.	8g/|	.	4r	.	.	4r	.	.	4r	.	.	4r	.	.	.	.	.	.	.	4r	.	4r	.
8B\J|	.	.	8B/J	.	8b/J	.	8b/J|	.	.	.	.	.	.	.	.	.	.	.	.	.	.	.	.	.	.	.	.	.	.
!	!	!	!LO:LB:g=original	!	!	!	!LO:LB:g=original	!	!	!	!	!	!	!	!	!	!	!	!	!	!	!	!	!	!	!	!	!	!
=17	=17	=17	=17	=17	=17	=17	=17	=17	=17	=17	=17	=17	=17	=17	=17	=17	=17	=17	=17	=17	=17	=17	=17	=17	=17	=17	=17	=17	=17
*clefC4	*	*	*	*	*	*	*	*	*	*	*	*2\right	*	*	*2\right	*	*	*2\right	*	*	*	*	*	*	*	*	*	*	*
!LO:SIC:v:t:=custos e	!	!	!LO:TX:a:t=P:problem:mixed beam	!	!	!	!	!LO:DY:a	!	!	!	!	!	!LO:DY:a:rj:t=po	!	!	!LO:DY:a:t=po	!	!	!LO:DY:a:t=po	!	!	!	!	!	!	!	!	!
!LO:LB:g=original	!	!	!	!	!	!	!	!	!LO:N:vis=0	!	!	!	!	!	!	!	!	!	!	!	!	!	!	!	!	!LO:N:vis=00	!	!LO:N:vis=00	!
8e\L	n	.	8e\L	.	8B/L	.	4g/	p	1.r	.	.	2e\	mi-	p	2g\	mi-	p	2b\	mi-	p	2.r	2.r	.	2.r	2.ryy	0.r	.	0.r	.
8e\J	.	.	8E/J	.	8B/	.	.	.	.	.	.	.	.	.	.	.	.	.	.	.	.	.	.	.	.	.	.	.	.
*tremolo	*	*	*tremolo	*	*	*	*	*	*	*	*	*	*	*	*	*	*	*	*	*	*	*	*	*	*	*	*	*	*
*2\right	*	*	*	*	*	*	*	*	*	*	*	*	*	*	*	*	*	*	*	*	*	*	*	*	*	*	*	*	*
8e\L	.	.	8E/L	.	8B/	.	8.gg\L	.	.	.	.	.	.	.	.	.	.	.	.	.	.	.	.	.	.	.	.	.	.
8e\	.	.	8E/	.	8g/	.	.	.	.	.	.	.	.	.	.	.	.	.	.	.	.	.	.	.	.	.	.	.	.
.	.	.	.	.	.	.	16ee\Jk	.	.	.	.	.	.	.	.	.	.	.	.	.	.	.	.	.	.	.	.	.	.
8e\	.	.	8E/	.	8g/	.	8.b\L	.	.	.	.	4e\	-ſe-	.	4g\	-ſe-	.	4b\	-sĕ-	.	.	.	.	.	.	.	.	.	.
8e\J	.	.	8E/J	.	8g/J	.	.	.	.	.	.	.	.	.	.	.	.	.	.	.	.	.	.	.	.	.	.	.	.
.	.	.	.	.	.	.	16b\Jk	.	.	.	.	.	.	.	.	.	.	.	.	.	.	.	.	.	.	.	.	.	.
*Xtremolo	*	*	*Xtremolo	*	*	*	*	*	*	*	*	*	*	*	*	*	*	*	*	*	*	*	*	*	*	*	*	*	*
!	!	!	!	!	!	!	!	!	!	!	!	!LO:LB:g=original	!	!	!LO:LB:g=original	!	!	!LO:LB:g=original	!	!	!	!	!	!	!	!	!	!	!
=18	=18	=18	=18	=18	=18	=18	=18	=18	=18	=18	=18	=18	=18	=18	=18	=18	=18	=18	=18	=18	=18	=18	=18	=18	=18	=18	=18	=18	=18
8e\L	5 3	.	8E/L	.	8g/L	.	4b\	.	.	.	.	(4e\	-re-	.	(4g\	-re-	.	(4b\	-re-	.	2.r	2.r	.	2.r	2.ryy	.	.	.	.
8e\	.	.	8E/	.	8g/	.	.	.	.	.	.	.	.	.	.	.	.	.	.	.	.	.	.	.	.	.	.	.	.
.	.	.	.	.	.	.	8qdd/	.	.	.	.	.	.	.	.	.	.	.	.	.	.	.	.	.	.	.	.	.	.
8d#X\	7_ 5_	.	8D#X/	.	8a/	.	8cc\L	.	.	.	.	4d#X\)	.	.	4a\)	.	.	4cc\)	.	.	.	.	.	.	.	.	.	.	.
8d#\	.	.	8D#/	.	8a/	.	(16b\L	.	.	.	.	.	.	.	.	.	.	.	.	.	.	.	.	.	.	.	.	.	.
.	.	.	.	.	.	.	16cc\JJ)	.	.	.	.	.	.	.	.	.	.	.	.	.	.	.	.	.	.	.	.	.	.
8e\	5 3	.	8E/	.	8g/	.	8.b\L	.	.	.	.	4e\	-re	.	4g\	-re	.	4b\|	-re	.	.	.	.	.	.	.	.	.	.
8e\J	.	.	8E/J	.	8g/J	.	.	.	.	.	.	.	.	.	.	.	.	.	.	.	.	.	.	.	.	.	.	.	.
.	.	.	.	.	.	.	16b\Jk	.	.	.	.	.	.	.	.	.	.	.	.	.	.	.	.	.	.	.	.	.	.
!	!	!	!	!	!LO:LB:g=original	!	!	!	!LO:PB:g=original	!	!	!	!	!	!	!	!	!	!	!	!	!	!	!	!	!	!	!	!
=19	=19	=19	=19	=19	=19	=19	=19	=19	=19	=19	=19	=19	=19	=19	=19	=19	=19	=19	=19	=19	=19	=19	=19	=19	=19	=19	=19	=19	=19
*clefF4	*	*	*tremolo	*	*	*	*	*	*2\right	*	*	*	*	*	*	*	*	*	*	*	*	*	*	*	*	*	*	*	*
!LO:TX:a:t=P:problem:mixed beam	!	!	!	!	!	!	!	!	!	!	!LO:DY:a:t=po	!LO:N:vis=0	!	!	!	!	!	!	!	!	!	!	!	!	!	!	!	!	!
8BB/L	#	.	8B/L	.	8f#/L	.	4dd#X\	.	2B\	mi-	p	1.r	.	.	2f#\	mi-	.	2dd#X\	mi-	.	2.r	2.r	.	2.r	2.ryy	.	.	.	.
8B\J	.	.	8B/	.	8f#/	.	.	.	.	.	.	.	.	.	.	.	.	.	.	.	.	.	.	.	.	.	.	.	.
*tremolo	*	*	*	*	*	*	*	*	*	*	*	*	*	*	*	*	*	*	*	*	*	*	*	*	*	*	*	*	*
8B\L	.	.	8B/	.	8d#X/	.	8.aa\L	.	.	.	.	.	.	.	.	.	.	.	.	.	.	.	.	.	.	.	.	.	.
8B\	.	.	8B/	.	8d#/	.	.	.	.	.	.	.	.	.	.	.	.	.	.	.	.	.	.	.	.	.	.	.	.
.	.	.	.	.	.	.	16ff#\K	.	.	.	.	.	.	.	.	.	.	.	.	.	.	.	.	.	.	.	.	.	.
8B\	.	.	8B/	.	8f#/	.	8.dd#X\	.	4B\	-ſe-	.	.	.	.	4f#\	-ſe-	.	4dd#\	-ſe-	.	.	.	.	.	.	.	.	.	.
8B\J	.	.	8B/J	.	8f#/J	.	.	.	.	.	.	.	.	.	.	.	.	.	.	.	.	.	.	.	.	.	.	.	.
.	.	.	.	.	.	.	16b\Jk	.	.	.	.	.	.	.	.	.	.	.	.	.	.	.	.	.	.	.	.	.	.
*Xtremolo	*	*	*Xtremolo	*	*	*	*	*	*	*	*	*	*	*	*	*	*	*	*	*	*	*	*	*	*	*	*	*	*
=20	=20	=20	=20	=20	=20	=20	=20	=20	=20	=20	=20	=20	=20	=20	=20	=20	=20	=20	=20	=20	=20	=20	=20	=20	=20	=20	=20	=20	=20
!	!	!	!	!	!	!	!	!	!	!	!	!	!	!	!	!	!	!LO:SIC:v:s=4dd#	!	!	!	!	!	!	!	!	!	!	!
8B\L	#	.	8B/L	.	8d#X/L	.	4f#/	.	(4B\	-re-	.	.	.	.	(4f#\	-re-	.	(4dd\	-re-	.	2.r	2.r	.	2.r	2.ryy	.	.	.	.
8B\	.	.	8B/	.	8d#/	.	.	.	.	.	.	.	.	.	.	.	.	.	.	.	.	.	.	.	.	.	.	.	.
.	.	.	.	.	.	.	8qa/	.	.	.	.	.	.	.	.	.	.	.	.	.	.	.	.	.	.	.	.	.	.
8A#X\	7 5	.	8A#X/	.	8e/	.	8g/L	.	4A#X\)	.	.	.	.	.	4g\)	.	.	4ee\)	.	.	.	.	.	.	.	.	.	.	.
8A#\	.	.	8A#/	.	8e/	.	(16f#/L	.	.	.	.	.	.	.	.	.	.	.	.	.	.	.	.	.	.	.	.	.	.
.	.	.	.	.	.	.	16g/JJ)	.	.	.	.	.	.	.	.	.	.	.	.	.	.	.	.	.	.	.	.	.	.
!	!	!	!	!	!	!	!	!	!	!	!	!	!	!	!	!	!	!LO:SIC:v:s=4dd#	!	!	!	!	!	!	!	!	!	!	!
8B\	#	.	8B/	.	8d#/	.	8.f#/L	.	4B\	-re	.	.	.	.	4f#\	-re	.	4dd\|	-re	.	.	.	.	.	.	.	.	.	.
8B\J	.	.	8B/J	.	8d#/J	.	.	.	.	.	.	.	.	.	.	.	.	.	.	.	.	.	.	.	.	.	.	.	.
.	.	.	.	.	.	.	16f#/Jk	.	.	.	.	.	.	.	.	.	.	.	.	.	.	.	.	.	.	.	.	.	.
=21	=21	=21	=21	=21	=21	=21	=21	=21	=21	=21	=21	=21	=21	=21	=21	=21	=21	=21	=21	=21	=21	=21	=21	=21	=21	=21	=21	=21	=21
!LO:TX:a:t=T&colon;	!	!LO:DY:t=for.	!	!LO:DY:t=fo	!	!LO:DY:a	!	!LO:DY:a	!	!	!LO:DY:a:t=fi	!	!	!LO:DY:a:t=fr	!	!	!LO:DY:a:t=fo	!	!	!LO:DY:rj:a:t=f&colon;	!	!	!	!	!	!	!	!	!
*	*	*	*	*	*	*	*	*	*	*	*	*	*	*	*	*ij	*	*	*ij	*	*	*	*	*	*	*	*	*	*
4E\	n	f	4B/	f	4e/	f	4g/|	f	2E\	mi-	f	2B\	mi-	f	2g\	mi-	f	2ee\	mi-	f	2.r	2.r	.	2.r	2.ryy	[2.g/	.	2b\	.
4EE/	.	.	4e\	.	8.B/L	.	4gg\|	.	.	.	.	.	.	.	.	.	.	.	.	.	.	.	.	.	.	.	.	.	.
.	.	.	.	.	16e/K	.	.	.	.	.	.	.	.	.	.	.	.	.	.	.	.	.	.	.	.	.	.	.	.
8r	.	.	8.r	.	8.g/	.	8r	.	4E\	-ſe-	.	4B\	-ſe-	.	4g\	-ſe-	.	4ee\	-ſe-	.	.	.	.	.	.	.	.	4ee\	.
16r	.	.	.	.	.	.	16r	.	.	.	.	.	.	.	.	.	.	.	.	.	.	.	.	.	.	.	.	.	.
16E\	.	.	16G/	.	16e/Jk	.	16b\|	.	.	.	.	.	.	.	.	.	.	.	.	.	.	.	.	.	.	.	.	.	.
=22	=22	=22	=22	=22	=22	=22	=22	=22	=22	=22	=22	=22	=22	=22	=22	=22	=22	=22	=22	=22	=22	=22	=22	=22	=22	=22	=22	=22	=22
4C/	5_	.	4C/	.	4ee\	.	4gg\|	.	2C/	-re-	.	2c\	-re-	.	2g\	-re-	.	2ee\	-re-	.	2.r	2.r	.	2.r	2.ryy	2.g/]	.	2.ee\	.
4c\	.	.	4C/	.	8.e/L	.	4g/|	.	.	.	.	.	.	.	.	.	.	.	.	.	.	.	.	.	.	.	.	.	.
.	X	.	.	.	16g/K	.	.	.	.	.	.	.	.	.	.	.	.	.	.	.	.	.	.	.	.	.	.	.	.
8r	.	.	8.r	.	8.cc/	.	8r	.	4C/	-re	.	4e\	-re	.	4g\	-re	.	4cc\	-re	.	.	.	.	.	.	.	.	.	.
16r	.	.	.	.	.	.	16r	.	.	.	.	.	.	.	.	.	.	.	.	.	.	.	.	.	.	.	.	.	.
16C/	.	.	16c\	.	16g/Jk	.	16ee\|	.	.	.	.	.	.	.	.	.	.	.	.	.	.	.	.	.	.	.	.	.	.
!LO:SIC:v:t:=custos D	!	!	!	!	!	!	!	!	!	!	!	!	!	!	!	!	!	!	!	!	!	!	!	!	!	!	!	!	!
!LO:PB:g=original	!	!	!	!	!	!	!LO:LB:g=original	!	!	!	!	!	!	!	!	!	!	!	!	!	!	!	!	!	!	!	!	!	!
=23	=23	=23	=23	=23	=23	=23	=23	=23	=23	=23	=23	=23	=23	=23	=23	=23	=23	=23	=23	=23	=23	=23	=23	=23	=23	=23	=23	=23	=23
*	*	*	*	*	*	*	*	*	*	*ij	*	*	*ij	*	*	*	*	*	*	*	*	*	*	*	*	*	*	*	*
4D/	5_ 4_	.	4d\	.	4g/	.	4a/|	.	2D/	mi-	.	2d\	mi-	.	2g\	mi-	.	2a\	mi-	.	2.r	2.r	.	2.r	2.ryy	2g/	.	2a/	.
4d\	.	.	4d\	.	8.a/L	.	4gg\|	.	.	.	.	.	.	.	.	.	.	.	.	.	.	.	.	.	.	.	.	.	.
.	X X	.	.	.	16g/K	.	.	.	.	.	.	.	.	.	.	.	.	.	.	.	.	.	.	.	.	.	.	.	.
8r	.	.	8.r	.	8.a/	.	8r	.	4D/	-ſe-	.	4c\	-ſe-	.	4f#\	-ſe-	.	4a\	-ſe-	.	.	.	.	.	.	8a/L	.	4ff#\	.
16r	.	.	.	.	.	.	16r	.	.	.	.	.	.	.	.	.	.	.	.	.	.	.	.	.	.	8cc/J	.	.	.
16D\	#	.	16A/	.	16cc/Jk	.	16ff#\|	.	.	.	.	.	.	.	.	.	.	.	.	.	.	.	.	.	.	.	.	.	.
=24	=24	=24	=24	=24	=24	=24	=24	=24	=24	=24	=24	=24	=24	=24	=24	=24	=24	=24	=24	=24	=24	=24	=24	=24	=24	=24	=24	=24	=24
4E\	5	.	4G/	p	4b/	.	4gg\|	.	2E\	-re-	.	2B\	-re-	.	2e\	-re-	.	2g/	-re-	.	2.r	2.r	.	2.r	2.ryy	2.b\	.	2.gg\	.
4EE/	.	.	4G/	.	8.b/L	.	4gg\|	.	.	.	.	.	.	.	.	.	.	.	.	.	.	.	.	.	.	.	.	.	.
.	.	.	.	.	16g/K	.	.	.	.	.	.	.	.	.	.	.	.	.	.	.	.	.	.	.	.	.	.	.	.
!LO:TX:a:t=Solo.	!	!	!	!	!	!	!	!	!	!	!	!	!	!	!	!	!	!	!	!	!	!	!	!	!	!	!	!	!
8r	.	.	4r	.	8.e/	.	8r	.	4E\	-re	.	4B\	-re	.	4e\	-re	.	4g/	-re	.	.	.	.	.	.	.	.	.	.
*	*	*	*	*	*	*	*	*	*	*Xij	*	*	*	*	*	*Xij	*	*	*Xij	*	*	*	*	*	*	*	*	*	*
16r	.	.	.	.	.	.	16r	.	.	.	.	.	.	.	.	.	.	.	.	.	.	.	.	.	.	.	.	.	.
!	!	!	!LO:TX:b:t=Š&colon;	!	!	!	!	!LO:DY:a	!	!	!	!	!	!	!	!	!	!	!	!	!	!	!	!	!	!	!	!	!
16E\	.	.	.	.	16g/Jk	.	16b\	p	.	.	.	.	.	.	.	.	.	.	.	.	.	.	.	.	.	.	.	.	.
!	!	!	!LO:PB:g=original	!	!	!	!	!	!	!	!	!	!	!	!	!	!	!	!	!	!	!	!	!	!	!	!	!	!
=25	=25	=25	=25	=25	=25	=25	=25	=25	=25	=25	=25	=25	=25	=25	=25	=25	=25	=25	=25	=25	=25	=25	=25	=25	=25	=25	=25	=25	=25
!LO:TX:a:t=P:problem:mixed beam	!	!	!	!LO:DY:t=p&colon;	!	!LO:DY:a	!	!	!	!	!LO:DY:a:t=po	!	!	!LO:DY:a:t=po	!	!	!LO:DY:a:t=po	!	!	!LO:DY:a:t=po	!	!	!	!	!	!	!LO:DY:t=p&colon;	!	!LO:DY:t=po.
8BB/L	6	.	8d\	p	8g/L	p	(8b/L	.	4BB/	mi-	p	2d\	mi-	p	(4g\	mi-	p	(4b\	mi-	p	2.r	2.r	.	2.r	2.ryy	2.dd\	p	2.dd\	p
8B\	.	.	8r	.	8g/	.	8d/)	.	.	.	.	.	.	.	.	.	.	.	.	.	.	.	.	.	.	.	.	.	.
8AA/	6\	.	8d\	.	8f#/	.	(8cc/	.	4AA/	.	.	.	.	.	4f#\)	.	.	4cc\)	.	.	.	.	.	.	.	.	.	.	.
8A\	.	.	8r	.	8f#/	.	8d/)	.	.	.	.	.	.	.	.	.	.	.	.	.	.	.	.	.	.	.	.	.	.
!	!	!	!	!	!	!	!	!	!LO:TX:a:t=P:problem:mixed beam	!	!	!	!	!	!	!	!	!	!	!	!	!	!	!	!	!	!	!	!
8GG/	3	.	8d\	.	8g/	.	(8b/	.	8GG/L	-ſe-	.	4d\	-ſe-	.	4g\	-ſe-	.	4b\|	-ſĕ-	.	.	.	.	.	.	.	.	.	.
8G\J	.	.	8r	.	8g/J	.	8d/J)	.	8G\J	.	.	.	.	.	.	.	.	.	.	.	.	.	.	.	.	.	.	.	.
!	!	!	!	!	!	!	!	!	!	!	!	!	!	!	!	!	!	!LO:LB:g=original	!	!	!	!	!	!	!	!	!	!	!
=26	=26	=26	=26	=26	=26	=26	=26	=26	=26	=26	=26	=26	=26	=26	=26	=26	=26	=26	=26	=26	=26	=26	=26	=26	=26	=26	=26	=26	=26
*	*	*	*tremolo	*	*tremolo	*	*tremolo	*	*	*	*	*	*	*	*	*	*	*	*	*	*	*	*	*	*	*	*	*	*
*	*	*	*2\right	*	*	*	*2\right	*	*	*	*	*	*	*	*	*	*	*	*	*	*	*	*	*	*	*	*	*	*
8F#X\L	6_ 5_	.	8d\L	.	8a/L	.	8cc\L	.	2F#\	-re-	.	2d\	-re-	.	2a\	-re-	.	2cc\	-re-	.	2.r	2.r	.	2.r	2.ryy	(2aa\	.	2ccc\	.
8A\	.	.	8d\	.	8a/	.	8cc\	.	.	.	.	.	.	.	.	.	.	.	.	.	.	.	.	.	.	.	.	.	.
8F#\	.	.	8d\	.	8a/	.	8cc\	.	.	.	.	.	.	.	.	.	.	.	.	.	.	.	.	.	.	.	.	.	.
8D\J	.	.	8d\	.	8a/J	.	8cc\J	.	.	.	.	.	.	.	.	.	.	.	.	.	.	.	.	.	.	.	.	.	.
*	*	*	*	*	*Xtremolo	*	*Xtremolo	*	*	*	*	*	*	*	*	*	*	*	*	*	*	*	*	*	*	*	*	*	*
!LO:TX:a:t=P:problem:mixed beam	!	!	!	!	!	!	!	!	!	!	!	!	!	!	!	!	!	!	!	!	!	!	!	!	!	!	!	!	!
8G\L	x 3	.	8d\	.	8g/L	.	8b\L|	.	4G\	-re	.	4d\	-re	.	4g\	-re	.	4b\	-re	.	.	.	.	.	.	4gg\)	.	4bb\	.
*	*	*	*	*	*	*	*	*	*	*	*	*	*Xij	*	*	*	*	*	*	*	*	*	*	*	*	*	*	*	*
8GG/J	.	.	8d\J	.	8g/J	.	8b\J|	.	.	.	.	.	.	.	.	.	.	.	.	.	.	.	.	.	.	.	.	.	.
*	*	*	*Xtremolo	*	*	*	*	*	*	*	*	*	*	*	*	*	*	*	*	*	*	*	*	*	*	*	*	*	*
!	!	!	!	!	!LO:LB:g=original	!	!	!	!	!	!	!	!	!	!LO:LB:g=original	!	!	!	!	!	!	!	!	!	!	!	!	!	!
=27	=27	=27	=27	=27	=27	=27	=27	=27	=27	=27	=27	=27	=27	=27	=27	=27	=27	=27	=27	=27	=27	=27	=27	=27	=27	=27	=27	=27	=27
*	*	*	*	*	*tremolo	*	*	*	*	*	*	*	*	*	*	*	*	*	*	*	*	*	*	*	*	*	*	*	*
8C/L	6 5	.	8e\L	.	8f#/L	.	8a/L	.	4C/	no-	.	4e\	no-	.	(2g\	no-	.	4a\	no-	.	2.r	2.r	.	2.r	2.ryy	(2gg\	.	(4aa\	.
8AA/J	.	.	8e\J	.	8f#/	.	8a/	.	.	.	.	.	.	.	.	.	.	.	.	.	.	.	.	.	.	.	.	.	.
*	*	*	*tremolo	*	*	*	*	*	*	*	*	*	*	*	*	*	*	*	*	*	*	*	*	*	*	*	*	*	*
8D/L	6 4	.	8d\L	.	8f#/	.	8b/	.	2D/	.	.	2d\	.	.	.	.	.	(4b\	.	.	.	.	.	.	.	.	.	4bb\)	.
8C#X/	5 3	.	8d\	.	8f#/	.	8b/	.	.	.	.	.	.	.	.	.	.	.	.	.	.	.	.	.	.	.	.	.	.
8D/	.	.	8d\	.	8f#/	.	8a/	.	.	.	.	.	.	.	4f#\)	.	.	4a\)	.	.	.	.	.	.	.	4ff#\)	.	4aa\	.
8DD/J	.	.	8d\J	.	8f#/J	.	8a/J	.	.	.	.	.	.	.	.	.	.	.	.	.	.	.	.	.	.	.	.	.	.
*	*	*	*Xtremolo	*	*Xtremolo	*	*	*	*	*	*	*	*	*	*	*	*	*	*	*	*	*	*	*	*	*	*	*	*
!	!	!	!	!	!	!	!	!	!LO:LB:g=original	!	!	!	!	!	!	!	!	!	!	!	!	!	!	!	!	!	!	!	!
=28	=28	=28	=28	=28	=28	=28	=28	=28	=28	=28	=28	=28	=28	=28	=28	=28	=28	=28	=28	=28	=28	=28	=28	=28	=28	=28	=28	=28	=28
4GG/	.	.	4d\	.	4g/	.	4b/	.	4G\	-biſ	.	4d\	-bis	.	4g\	-bis	.	4b\	-bis	.	2.r	2.r	.	2.r	2.ryy	8gg\	.	8gg\	.
!	!	!	!	!	!	!	!	!	!	!	!	!	!	!	!	!	!	!	!	!	!	!	!	!	!	!	!	!LO:TX:a:t=Solo	!
.	.	.	.	.	.	.	.	.	.	.	.	.	.	.	.	.	.	.	.	.	.	.	.	.	.	8r	.	16b\LL	.
.	.	.	.	.	.	.	.	.	.	.	.	.	.	.	.	.	.	.	.	.	.	.	.	.	.	.	.	16dd\JJ	.
4r	.	.	4r	.	4r	.	4r	.	4r	.	.	4r	.	.	4r	.	.	4r	.	.	.	.	.	.	.	4r	.	8gg\L	.
.	.	.	.	.	.	.	.	.	.	.	.	.	.	.	.	.	.	.	.	.	.	.	.	.	.	.	.	(8ff#\	.
!LO:TX:b:t=Viol	!	!	!	!	!	!	!	!	!	!	!	!	!	!	!	!	!	!	!	!	!	!	!	!	!	!	!	!	!
[4G\	.	.	4r	.	4r	.	4b/	.	4r	.	.	4r	.	.	4r	.	.	4r	.	.	.	.	.	.	.	4r	.	8ee\	.
.	.	.	.	.	.	.	.	.	.	.	.	.	.	.	.	.	.	.	.	.	.	.	.	.	.	.	.	8dd\J)	.
!LO:LB:g=original	!	!	!	!	!	!	!	!	!	!	!	!LO:LB:g=original	!	!	!	!	!	!	!	!	!	!	!	!	!	!	!	!LO:LB:g=original	!
=29	=29	=29	=29	=29	=29	=29	=29	=29	=29	=29	=29	=29	=29	=29	=29	=29	=29	=29	=29	=29	=29	=29	=29	=29	=29	=29	=29	=29	=29
!LO:TX:a:t=P:problem:brak zakończenia ligatury	!	!	!LO:TX:a:t=3	!	!	!	!	!	!	!	!	!	!	!	!	!	!	!	!	!	!	!	!	!	!	!LO:TX:a:t=7.	!	!	!
!	!	!	!LO:N:vis=0	!	!	!	!	!	!LO:N:vis=00	!	!	!LO:N:vis=00	!	!	!LO:N:vis=00	!	!	!LO:N:vis=00	!	!	!	!	!	!	!	!LO:N:vis=00	!	!	!
16G\LL]	.	.	1.r	.	4A/	.	16e/LL	.	0.r	.	.	0.r	.	.	0.r	.	.	0.r	.	.	2.r	2.r	.	2.r	2.ryy	0.r	.	2.cc#X\	.
16E\	.	.	.	.	.	.	(16g/	.	.	.	.	.	.	.	.	.	.	.	.	.	.	.	.	.	.	.	.	.	.
16F#\	.	.	.	.	.	.	16f#/	.	.	.	.	.	.	.	.	.	.	.	.	.	.	.	.	.	.	.	.	.	.
16G\JJ	.	.	.	.	.	.	16e/JJ)	.	.	.	.	.	.	.	.	.	.	.	.	.	.	.	.	.	.	.	.	.	.
8A\L	.	.	.	.	4r	.	4.e/	.	.	.	.	.	.	.	.	.	.	.	.	.	.	.	.	.	.	.	.	.	.
8G\	.	.	.	.	.	.	.	.	.	.	.	.	.	.	.	.	.	.	.	.	.	.	.	.	.	.	.	.	.
8F#\	.	.	.	.	4r	.	.	.	.	.	.	.	.	.	.	.	.	.	.	.	.	.	.	.	.	.	.	.	.
8E\J	.	.	.	.	.	.	8g/	.	.	.	.	.	.	.	.	.	.	.	.	.	.	.	.	.	.	.	.	.	.
=30	=30	=30	=30	=30	=30	=30	=30	=30	=30	=30	=30	=30	=30	=30	=30	=30	=30	=30	=30	=30	=30	=30	=30	=30	=30	=30	=30	=30	=30
4D\	.	.	.	.	4A/	.	4f#/	.	.	.	.	.	.	.	.	.	.	.	.	.	2.r	2.r	.	2.r	2.ryy	.	.	8dd\L|	.
.	.	.	.	.	.	.	.	.	.	.	.	.	.	.	.	.	.	.	.	.	.	.	.	.	.	.	.	(16ff#\L	.
.	.	.	.	.	.	.	.	.	.	.	.	.	.	.	.	.	.	.	.	.	.	.	.	.	.	.	.	16aa\JJ)	.
4r	.	.	.	.	4r	.	4r	.	.	.	.	.	.	.	.	.	.	.	.	.	.	.	.	.	.	.	.	8ccc\L	.
.	.	.	.	.	.	.	.	.	.	.	.	.	.	.	.	.	.	.	.	.	.	.	.	.	.	.	.	(8bb\	.
!	!	!	!	!	!	!	!LO:LB:g=original	!	!	!	!	!	!	!	!	!	!	!	!	!	!	!	!	!	!	!	!	!	!
[<4c\	.	.	.	.	4r	.	4e/	.	.	.	.	.	.	.	.	.	.	.	.	.	.	.	.	.	.	.	.	8aa\	.
.	.	.	.	.	.	.	.	.	.	.	.	.	.	.	.	.	.	.	.	.	.	.	.	.	.	.	.	8gg\J)	.
=31	=31	=31	=31	=31	=31	=31	=31	=31	=31	=31	=31	=31	=31	=31	=31	=31	=31	=31	=31	=31	=31	=31	=31	=31	=31	=31	=31	=31	=31
16c\LL]	.	.	2.r	.	4d/	.	16a/LL	.	.	.	.	.	.	.	.	.	.	.	.	.	2.r	2.r	.	2.r	2.ryy	.	.	2.ff#\	.
16A\	.	.	.	.	.	.	(16cc/	.	.	.	.	.	.	.	.	.	.	.	.	.	.	.	.	.	.	.	.	.	.
16B\	.	.	.	.	.	.	16b/	.	.	.	.	.	.	.	.	.	.	.	.	.	.	.	.	.	.	.	.	.	.
16c\JJ	.	.	.	.	.	.	16a/JJ)	.	.	.	.	.	.	.	.	.	.	.	.	.	.	.	.	.	.	.	.	.	.
8d\L	.	.	.	.	4r	.	4.a/	.	.	.	.	.	.	.	.	.	.	.	.	.	.	.	.	.	.	.	.	.	.
8c\	.	.	.	.	.	.	.	.	.	.	.	.	.	.	.	.	.	.	.	.	.	.	.	.	.	.	.	.	.
8B\	.	.	.	.	4r	.	.	.	.	.	.	.	.	.	.	.	.	.	.	.	.	.	.	.	.	.	.	.	.
8A\J	.	.	.	.	.	.	8cc/	.	.	.	.	.	.	.	.	.	.	.	.	.	.	.	.	.	.	.	.	.	.
=32	=32	=32	=32	=32	=32	=32	=32	=32	=32	=32	=32	=32	=32	=32	=32	=32	=32	=32	=32	=32	=32	=32	=32	=32	=32	=32	=32	=32	=32
4G\	.	.	4G/	.	4d/	.	4b\|	.	.	.	.	.	.	.	.	.	.	.	.	.	2.r	2.r	.	2.r	2.ryy	.	.	8gg\L	.
.	.	.	.	.	.	.	.	.	.	.	.	.	.	.	.	.	.	.	.	.	.	.	.	.	.	.	.	8bb\	.
4r	.	.	4r	.	4r	.	4r	.	.	.	.	.	.	.	.	.	.	.	.	.	.	.	.	.	.	.	.	8gg\	.
.	.	.	.	.	.	.	.	.	.	.	.	.	.	.	.	.	.	.	.	.	.	.	.	.	.	.	.	8ee\J	.
.	.	.	.	.	.	.	.	.	.	.	.	.	.	.	.	.	.	.	.	.	.	.	.	.	.	.	.	8qdd/	.
4E\	6\	.	4E/	.	4A/	.	(4g/	.	.	.	.	.	.	.	.	.	.	.	.	.	.	.	.	.	.	.	.	(8cc#X\L	.
.	.	.	.	.	.	.	.	.	.	.	.	.	.	.	.	.	.	.	.	.	.	.	.	.	.	.	.	16b\L	.
.	.	.	.	.	.	.	.	.	.	.	.	.	.	.	.	.	.	.	.	.	.	.	.	.	.	.	.	16cc#\JJ)	.
=33	=33	=33	=33	=33	=33	=33	=33	=33	=33	=33	=33	=33	=33	=33	=33	=33	=33	=33	=33	=33	=33	=33	=33	=33	=33	=33	=33	=33	=33
!	!	!	!	!	!	!	!	!	!LO:N:vis=0	!	!	!LO:N:vis=0	!	!	!LO:N:vis=0	!	!	!LO:N:vis=0	!	!	!	!	!	!	!	!LO:N:vis=0	!	!	!
4D\	#	.	4D/	.	4A/	.	4f#/)	.	1.r	.	.	1.r	.	.	1.r	.	.	1.r	.	.	2.r	2.r	.	2.r	2.ryy	1.r	.	8dd\L	.
.	.	.	.	.	.	.	.	.	.	.	.	.	.	.	.	.	.	.	.	.	.	.	.	.	.	.	.	(8cccn\	.
4r	.	.	4r	.	4r	.	4r	.	.	.	.	.	.	.	.	.	.	.	.	.	.	.	.	.	.	.	.	8aa\	.
.	.	.	.	.	.	.	.	.	.	.	.	.	.	.	.	.	.	.	.	.	.	.	.	.	.	.	.	8ff#\	.
4F#X\	6 5	.	4F#/	.	4d/	.	4a/	.	.	.	.	.	.	.	.	.	.	.	.	.	.	.	.	.	.	.	.	8dd\	.
.	.	.	.	.	.	.	.	.	.	.	.	.	.	.	.	.	.	.	.	.	.	.	.	.	.	.	.	8cc\J)	.
=34	=34	=34	=34	=34	=34	=34	=34	=34	=34	=34	=34	=34	=34	=34	=34	=34	=34	=34	=34	=34	=34	=34	=34	=34	=34	=34	=34	=34	=34
4G\	.	.	4G/	.	8d/L	.	8g\L	.	.	.	.	.	.	.	.	.	.	.	.	.	2.r	2.r	.	2.r	2.ryy	.	.	8b\L	.
.	.	.	.	.	8G/	.	8b\	.	.	.	.	.	.	.	.	.	.	.	.	.	.	.	.	.	.	.	.	8gg\	.
4r	.	.	4r	.	8A/	.	(8cc\	.	.	.	.	.	.	.	.	.	.	.	.	.	.	.	.	.	.	.	.	(8ff#\	.
.	.	.	.	.	8B/J	.	8dd\	.	.	.	.	.	.	.	.	.	.	.	.	.	.	.	.	.	.	.	.	8ffn\	.
4G\	.	.	4r	.	4G/	.	8cc\)	.	.	.	.	.	.	.	.	.	.	.	.	.	.	.	.	.	.	.	.	8ee\)	.
.	.	.	.	.	.	.	8b\J	.	.	.	.	.	.	.	.	.	.	.	.	.	.	.	.	.	.	.	.	8dd#X\J	.
=35	=35	=35	=35	=35	=35	=35	=35	=35	=35	=35	=35	=35	=35	=35	=35	=35	=35	=35	=35	=35	=35	=35	=35	=35	=35	=35	=35	=35	=35
.	.	.	.	.	.	.	.	.	.	.	.	.	.	.	.	.	.	.	.	.	.	.	.	.	.	.	.	8qgg/	.
8C/	.	.	4r	.	8G/	.	(8cc/L	.	2.r	.	.	2.r	.	.	2.r	.	.	2.r	.	.	2.r	2.r	.	2.r	2.ryy	2.r	.	8ee\L	.
8r	.	.	.	.	8r	.	8a/J)	.	.	.	.	.	.	.	.	.	.	.	.	.	.	.	.	.	.	.	.	8cc\J	.
8D/	6 4	.	8D/	.	8B/L	.	8g/L|	.	.	.	.	.	.	.	.	.	.	.	.	.	.	.	.	.	.	.	.	4b\	.
8r	5 3	.	8r	.	8B/	.	8g/|	.	.	.	.	.	.	.	.	.	.	.	.	.	.	.	.	.	.	.	.	.	.
8D/	.	.	8D/	.	8c/	.	8f#/|	.	.	.	.	.	.	.	.	.	.	.	.	.	.	.	.	.	.	.	.	16dd\LL	.
.	.	.	.	.	.	.	.	.	.	.	.	.	.	.	.	.	.	.	.	.	.	.	.	.	.	.	.	16cc\	.
8r	.	.	8r	.	8c/J	.	8f#/J|	.	.	.	.	.	.	.	.	.	.	.	.	.	.	.	.	.	.	.	.	16b\	.
.	.	.	.	.	.	.	.	.	.	.	.	.	.	.	.	.	.	.	.	.	.	.	.	.	.	.	.	16a\JJ	.
!LO:LB:g=original	!	!	!LO:LB:g=original	!	!	!	!	!	!	!	!	!	!	!	!	!	!	!	!	!	!	!	!	!	!	!LO:LB:g=original	!	!	!
=36	=36	=36	=36	=36	=36	=36	=36	=36	=36	=36	=36	=36	=36	=36	=36	=36	=36	=36	=36	=36	=36	=36	=36	=36	=36	=36	=36	=36	=36
!LO:TX:a:t=T&colon;	!	!	!	!LO:DY:rj:t=fo	!	!LO:DY:a	!	!LO:DY:a	!	!	!LO:DY:a:t=fr	!	!	!LO:DY:a:t=fr	!	!	!LO:DY:a:t=fr	!	!	!LO:DY:a:t=fn	!	!	!	!	!	!	!LO:DY:t=for	!	!
4GG/	.	.	4D/	f	4B/	f	4g/	f	4G\	Qui	f	4d\	Qui	f	4g\	Qui	f	4b\	Qui	f	2.r	2.r	.	2.r	2.ryy	4g/	f	4b\	.
4G\	.	.	4G/	.	4d/	.	8.bb\L	.	4G\	tol-	.	4d\	tol-	.	4g\	tol-	.	4b\	tol-	.	.	.	.	.	.	2b/	.	2dd\	.
.	.	.	.	.	.	.	16gg\K	.	.	.	.	.	.	.	.	.	.	.	.	.	.	.	.	.	.	.	.	.	.
8r	.	.	8.r	.	8r	.	8.dd\	.	8G\	-lis	.	8d\	-lis	.	8g\	-lis	.	8b\	-lis	.	.	.	.	.	.	.	.	.	.
16r	.	.	.	.	16r	.	.	.	8G\	pec-	.	8d\	pec-	.	8g\	pec-	.	8b\	pec-	.	.	.	.	.	.	.	.	.	.
!	!	!	!	!	!LO:LB:g=original	!	!	!	!	!	!	!	!	!	!	!	!	!	!	!	!	!	!	!	!	!	!	!	!
16G\	.	.	16G/	.	16d/	.	16b\Jk	.	.	.	.	.	.	.	.	.	.	.	.	.	.	.	.	.	.	.	.	.	.
=37	=37	=37	=37	=37	=37	=37	=37	=37	=37	=37	=37	=37	=37	=37	=37	=37	=37	=37	=37	=37	=37	=37	=37	=37	=37	=37	=37	=37	=37
4E\	6	.	4E/	.	4g 4G/	.	4cc\	.	4E\	-ca-	.	4e\	-ca-	.	4g\	-ca-	.	4cc\	-ca-	.	2.r	2.r	.	2.r	2.ryy	4g/	.	4cc\	.
4C\	.	.	4C/	.	4g 4G/	.	8.ee\L	.	4C/	-ta	.	4e\	-ta	.	4g\	-ta	.	4cc\	-ta	.	.	.	.	.	.	2g/	.	2ee\	.
.	.	.	.	.	.	.	16g\K	.	.	.	.	.	.	.	.	.	.	.	.	.	.	.	.	.	.	.	.	.	.
8r	.	.	8.r	.	8r	.	8.cc\	.	4C/	-qui	.	4e\	pec-	.	4g\	qui	.	4cc\	qui	.	.	.	.	.	.	.	.	.	.
16r	.	.	.	.	16r	.	.	.	.	.	.	.	.	.	.	.	.	.	.	.	.	.	.	.	.	.	.	.	.
16C/	.	.	16c\	.	16g/	.	16ee\Jk	.	.	.	.	.	.	.	.	.	.	.	.	.	.	.	.	.	.	.	.	.	.
!	!	!	!	!	!	!	!LO:LB:g=original	!	!	!	!	!	!	!	!	!	!	!	!	!	!	!	!	!	!	!	!	!	!
=38	=38	=38	=38	=38	=38	=38	=38	=38	=38	=38	=38	=38	=38	=38	=38	=38	=38	=38	=38	=38	=38	=38	=38	=38	=38	=38	=38	=38	=38
4c\	+4r_ 2_	.	4A/	.	4f#X/	.	4dd\|	.	4C/	tol-	.	4d\	-ca-	.	4f#\	tol-	.	4a\	tol-	.	2.r	2.r	.	2.r	2.ryy	2.a/	.	2.ff#\	.
4C/	.	.	4D/	.	4g/	.	8.ff#\L	.	8C/	-lis	.	8d\	-ta	.	8f#\	-lis	.	8a\	-lis	.	.	.	.	.	.	.	.	.	.
.	X X	.	.	.	.	.	.	.	8C/	pec-	.	8d\	pec-	.	8f#\	pec-	.	8a\	pec-	.	.	.	.	.	.	.	.	.	.
.	.	.	.	.	.	.	16dd\K	.	.	.	.	.	.	.	.	.	.	.	.	.	.	.	.	.	.	.	.	.	.
8r	.	.	8.r	.	8r	.	8.aa\	.	8C/	-ca-	.	8d\	-ca-	.	8f#\	-ca-	.	8a\	-ca-	.	.	.	.	.	.	.	.	.	.
16r	.	.	.	.	16r	.	.	.	8C/	-ta	.	8d\	-ta	.	8f#\	-ta	.	8a\	-ta	.	.	.	.	.	.	.	.	.	.
16C/	.	.	16d\	.	16a/	.	16ff#\Jk	.	.	.	.	.	.	.	.	.	.	.	.	.	.	.	.	.	.	.	.	.	.
!	!	!	!	!	!	!	!	!	!	!	!	!	!	!	!	!	!	!LO:LB:g=original	!	!	!	!	!	!	!	!	!	!	!
=39	=39	=39	=39	=39	=39	=39	=39	=39	=39	=39	=39	=39	=39	=39	=39	=39	=39	=39	=39	=39	=39	=39	=39	=39	=39	=39	=39	=39	=39
4BB/	6	.	4B/	.	4dd 4d/	.	4gg\|	.	4BB/	mun-	.	4d\	mun-	.	4g\	mun-	.	4b\	mun-	.	2.r	2.r	.	2.r	2.ryy	4g/	.	4gg\	.
!LO:TX:a:t=P:problem:mixed beam	!	!	!LO:TX:a:t=P:problem:mixed beam	!	!	!	!	!	!	!	!	!	!	!	!	!	!	!	!	!	!	!	!	!	!	!	!	!	!
8.GG/L	.	.	8.G/L	.	8.ddL 8.d/	.	8.bb\L	.	4GG/	-di	.	4d\	-di	.	4g\	-di	.	4b\	-di	.	.	.	.	.	.	4b/	.	4gg\	.
16G\K	.	.	16g\Jk	.	16dd/Jk	.	16bb\K	.	.	.	.	.	.	.	.	.	.	.	.	.	.	.	.	.	.	.	.	.	.
!	!	!	!LO:TX:a:t=P:problem:mixed beam	!	!	!	!	!	!	!	!	!	!	!	!	!	!	!	!	!	!	!	!	!	!	!	!	!	!
8.F#\	6	.	8.g\L	.	8.dd\L	.	8.aa\	.	4r	.	.	4r	.	.	4r	.	.	4r	.	.	.	.	.	.	.	4r	.	4r	.
16E\Jk	6\	.	16A/Jk	.	16gg\Jk	.	16ccc#X\Jk	.	.	.	.	.	.	.	.	.	.	.	.	.	.	.	.	.	.	.	.	.	.
!	!	!	!	!	!	!	!	!	!	!	!	!	!	!	!	!	!	!	!	!	!	!	!	!	!	!	!	!LO:LB:g=original	!
=40	=40	=40	=40	=40	=40	=40	=40	=40	=40	=40	=40	=40	=40	=40	=40	=40	=40	=40	=40	=40	=40	=40	=40	=40	=40	=40	=40	=40	=40
4F#\	6_	.	4A/	.	4ff#\	.	4ddd\	.	4.F#\	-sus-	.	4.d\	Sus-	.	4.a\	Sus-	.	4.dd\	sus-	.	2.r	2.r	.	2.r	2.ryy	2.a/	.	[2.dd\	.
4D\	.	.	4D/	.	4aa\	.	8.ff#\L	.	.	.	.	.	.	.	.	.	.	.	.	.	.	.	.	.	.	.	.	.	.
.	X	.	.	.	.	.	.	.	8F#\	-ci-	.	8d\	-ci-	.	8a\	-ci-	.	8dd\	-ci-	.	.	.	.	.	.	.	.	.	.
.	.	.	.	.	.	.	16dd\K	.	.	.	.	.	.	.	.	.	.	.	.	.	.	.	.	.	.	.	.	.	.
8r	.	.	8.r	.	8r	.	8.ff#\	.	4F#\	-pe	.	4d\	-pe	.	4a\	-pe	.	4dd\	-pe	.	.	.	.	.	.	.	.	.	.
16r	.	.	.	.	16r	.	.	.	.	.	.	.	.	.	.	.	.	.	.	.	.	.	.	.	.	.	.	.	.
16F#\	6	.	16f#\	.	16dd\	.	16aa\Jk	.	.	.	.	.	.	.	.	.	.	.	.	.	.	.	.	.	.	.	.	.	.
!	!	!	!	!	!	!	!	!	!LO:LB:g=original	!	!	!	!	!	!LO:PB:g=original	!	!	!	!	!	!	!	!	!	!	!	!	!	!
=41	=41	=41	=41	=41	=41	=41	=41	=41	=41	=41	=41	=41	=41	=41	=41	=41	=41	=41	=41	=41	=41	=41	=41	=41	=41	=41	=41	=41	=41
*	*	*	*	*	*	*	*	*	*	*ij	*	*	*ij	*	*	*	*	*	*ij	*	*	*	*	*	*	*	*	*	*
4G\	.	.	4g\	.	4dd\	.	4bb\	.	4.G\	sus-	.	4.d\	Sus-	.	4.g\	Sus-	.	4.b\	sus-	.	2.r	2.r	.	2.r	2.ryy	2.b/	.	2.dd\]	.
4GG/	.	.	4G/	.	4dd\	.	8.b\L	.	.	.	.	.	.	.	.	.	.	.	.	.	.	.	.	.	.	.	.	.	.
.	.	.	.	.	.	.	.	.	8G\	-ci-	.	8d\	-ci-	.	8g\	-ci-	.	8b\	-ci-	.	.	.	.	.	.	.	.	.	.
.	.	.	.	.	.	.	16gg\K	.	.	.	.	.	.	.	.	.	.	.	.	.	.	.	.	.	.	.	.	.	.
8r	.	.	8.r	.	8r	.	8.dd\	.	4G\	-pe	.	4d\	-pe	.	4g\	-pe	.	4b\	-pe	.	.	.	.	.	.	.	.	.	.
16r	.	.	.	.	16r	.	.	.	.	.	.	.	.	.	.	.	.	.	.	.	.	.	.	.	.	.	.	.	.
16G\	.	.	16g\	.	16d/	.	16b\Jk	.	.	.	.	.	.	.	.	.	.	.	.	.	.	.	.	.	.	.	.	.	.
!	!	!	!LO:LB:g=original	!	!	!	!	!	!	!	!	!LO:LB:g=original	!	!	!	!	!	!	!	!	!	!	!	!	!	!	!	!	!
=42	=42	=42	=42	=42	=42	=42	=42	=42	=42	=42	=42	=42	=42	=42	=42	=42	=42	=42	=42	=42	=42	=42	=42	=42	=42	=42	=42	=42	=42
*	*	*	*	*	*	*	*	*	*	*	*	*	*	*	*	*ij	*	*	*	*	*	*	*	*	*	*	*	*	*
4E\	6	.	4e\	.	4g/	.	4cc\	.	4.E\	sus-	.	4.c\	Sus-	.	4.g\	Sus-	.	4.cc\	sus-	.	2.r	2.r	.	2.r	2.ryy	2.g/	.	2.cc\	.
4EE/	.	.	4e\	.	4g/	.	8.c/L	.	.	.	.	.	.	.	.	.	.	.	.	.	.	.	.	.	.	.	.	.	.
.	.	.	.	.	.	.	.	.	8E\	-ci-	.	8c\	-ci-	.	8g\	-ci-	.	8cc\	-ci-	.	.	.	.	.	.	.	.	.	.
.	.	.	.	.	.	.	16e/K	.	.	.	.	.	.	.	.	.	.	.	.	.	.	.	.	.	.	.	.	.	.
8r	.	.	8.r	.	8r	.	8.g/	.	4E\	-pe	.	4c\	-pe	.	4g\	-pe	.	4cc\	-pe	.	.	.	.	.	.	.	.	.	.
16r	.	.	.	.	16r	.	.	.	.	.	.	.	.	.	.	.	.	.	.	.	.	.	.	.	.	.	.	.	.
!LO:LB:g=original	!	!	!	!	!	!	!	!	!	!	!	!	!	!	!	!	!	!	!	!	!	!	!	!	!	!	!	!	!
16E\	.	.	16e\	.	16g/	.	16cc/Jk	.	.	.	.	.	.	.	.	.	.	.	.	.	.	.	.	.	.	.	.	.	.
!	!	!	!	!	!LO:LB:g=original	!	!	!	!	!	!	!	!	!	!	!	!	!	!	!	!	!	!	!	!	!	!	!	!
=43	=43	=43	=43	=43	=43	=43	=43	=43	=43	=43	=43	=43	=43	=43	=43	=43	=43	=43	=43	=43	=43	=43	=43	=43	=43	=43	=43	=43	=43
4C/	.	.	4c\	.	4g/	.	4ee\	.	4.C/	sus-	.	4.c\	Sus-	.	4.g\	Sus-	.	4.ee\	sus-	.	2.r	2.r	.	2.r	2.ryy	2.g/	.	2.ee\	.
4c\	.	.	4c\	.	4g/	.	8.e/L	.	.	.	.	.	.	.	.	.	.	.	.	.	.	.	.	.	.	.	.	.	.
.	.	.	.	.	.	.	.	.	8C/	-ci-	.	8c\	-ci-	.	8g\	-ci-	.	8ee\	-ci-	.	.	.	.	.	.	.	.	.	.
.	.	.	.	.	.	.	16g/K	.	.	.	.	.	.	.	.	.	.	.	.	.	.	.	.	.	.	.	.	.	.
8r	.	.	8.r	.	8r	.	8.cc/	.	4C/	-pe	.	4c\	-pe	.	4g\	-pe	.	4ee\	-pe	.	.	.	.	.	.	.	.	.	.
*	*	*	*	*	*	*	*	*	*	*Xij	*	*	*Xij	*	*	*Xij	*	*	*Xij	*	*	*	*	*	*	*	*	*	*
16r	.	.	.	.	16r	.	.	.	.	.	.	.	.	.	.	.	.	.	.	.	.	.	.	.	.	.	.	.	.
!LO:TX:a:t=Solo	!	!	!	!	!	!LO:DY:a	!	!	!	!	!	!	!	!	!	!	!	!	!	!	!	!	!	!	!	!	!	!	!
16C/	.	.	16c\	.	16g/	p	16ee/Jk	.	.	.	.	.	.	.	.	.	.	.	.	.	.	.	.	.	.	.	.	.	.
=44	=44	=44	=44	=44	=44	=44	=44	=44	=44	=44	=44	=44	=44	=44	=44	=44	=44	=44	=44	=44	=44	=44	=44	=44	=44	=44	=44	=44	=44
*	*	*	*	*	*tremolo	*	*	*	*	*	*	*	*	*	*	*	*	*	*	*	*	*	*	*	*	*	*	*	*
!	!	!	!	!LO:DY:t=po.	!	!	!	!LO:DY:a	!	!	!LO:DY:a:t=po	!	!	!LO:DY:a:t=po	!	!	!LO:DY:a:t=po	!	!	!LO:DY:a:t=po	!	!	!	!	!	!	!LO:DY:t=p&colon;	!	!
8C/	+4_ 2_	.	8d\	p	8f#X/L	.	16a\LL	p	8C/	de-	p	8d\	de-	p	8f#\	de-	p	8a\	de-	p	2.r	2.r	.	2.r	2.ryy	2.f#/	p	[2.dd\	.
.	.	.	.	.	.	.	16dd\	.	.	.	.	.	.	.	.	.	.	.	.	.	.	.	.	.	.	.	.	.	.
8r	.	.	8r	.	8f#X/	.	(16cc#X\	.	8C/	-pre-	.	8d\	-pre-	.	8f#\	-pre-	.	8a\	-pre-	.	.	.	.	.	.	.	.	.	.
.	.	.	.	.	.	.	16dd\JJ)	.	.	.	.	.	.	.	.	.	.	.	.	.	.	.	.	.	.	.	.	.	.
8C/	.	.	8A/	.	8f#X/	.	16ee\LL	.	8C/	-ca-	.	8d\	-ca-	.	8f#\	-ca-	.	8a\	-ca-	.	.	.	.	.	.	.	.	.	.
.	.	.	.	.	.	.	(16dd\	.	.	.	.	.	.	.	.	.	.	.	.	.	.	.	.	.	.	.	.	.	.
8r	.	.	8r	.	8f#X/	.	16cc#\	.	8C/	-ti-	.	8d\	-ti-	.	8f#\	-ti-	.	8a\	-ti-	.	.	.	.	.	.	.	.	.	.
.	X X	.	.	.	.	.	16dd\JJ)	.	.	.	.	.	.	.	.	.	.	.	.	.	.	.	.	.	.	.	.	.	.
!	!	!	!	!	!	!	!LO:LB:g=original	!	!	!	!	!	!	!	!	!	!	!	!	!	!	!	!	!	!	!	!	!	!
8C/	.	.	8d\	.	8f#X/	.	16a\LL	.	8C/	-o-	.	8d\	-o-	.	8f#\	-o-	.	8a\	-o-	.	.	.	.	.	.	.	.	.	.
.	.	.	.	.	.	.	(16dd\	.	.	.	.	.	.	.	.	.	.	.	.	.	.	.	.	.	.	.	.	.	.
8r	.	.	8r	.	8f#X/J	.	16cc#X\	.	8C/	-nem	.	8d\	-nem	.	8f#\	-nem	.	8a\	-nem	.	.	.	.	.	.	.	.	.	.
.	.	.	.	.	.	.	16dd\JJ)	.	.	.	.	.	.	.	.	.	.	.	.	.	.	.	.	.	.	.	.	.	.
*	*	*	*	*	*Xtremolo	*	*	*	*	*	*	*	*	*	*	*	*	*	*	*	*	*	*	*	*	*	*	*	*
!	!	!	!	!	!	!	!	!	!	!	!	!	!	!	!	!	!	!LO:LB:g=original	!	!	!	!	!	!	!	!	!	!	!
=45	=45	=45	=45	=45	=45	=45	=45	=45	=45	=45	=45	=45	=45	=45	=45	=45	=45	=45	=45	=45	=45	=45	=45	=45	=45	=45	=45	=45	=45
*	*	*	*	*	*	*	*	*	*	*ij	*	*	*ij	*	*	*ij	*	*	*ij	*	*	*	*	*	*	*	*	*	*
8BB/	6_	.	8d\	.	8r	.	16gg\LL	.	8BB/	de-	.	8d\	de-	.	8g\	de-	.	8b\	de-	.	2.r	2.r	.	2.r	2.ryy	2g/	.	2.dd\]	.
.	.	.	.	.	.	.	(16dd\	.	.	.	.	.	.	.	.	.	.	.	.	.	.	.	.	.	.	.	.	.	.
8r	.	.	8r	.	8g/L	.	16cc#X\	.	8BB/	-pre-	.	8d\	-pre-	.	8g\	-pre-	.	8b\	-pre-	.	.	.	.	.	.	.	.	.	.
.	.	.	.	.	.	.	16dd\JJ)	.	.	.	.	.	.	.	.	.	.	.	.	.	.	.	.	.	.	.	.	.	.
8BB/	.	.	8B/	.	8g/	.	16ee\LL	.	8BB/	-ca-	.	8d\	-ca-	.	8g\	-ca-	.	8b\	-ca-	.	.	.	.	.	.	.	.	.	.
.	X	.	.	.	.	.	(16dd\	.	.	.	.	.	.	.	.	.	.	.	.	.	.	.	.	.	.	.	.	.	.
8r	.	.	8r	.	8g/	.	16cc#\	.	8BB/	-ti-	.	8d\	-ti-	.	8g\	-ti-	.	8b\	-ti-	.	.	.	.	.	.	.	.	.	.
.	.	.	.	.	.	.	16dd\JJ)	.	.	.	.	.	.	.	.	.	.	.	.	.	.	.	.	.	.	.	.	.	.
8GG/	.	.	8G/	.	8g/	.	16b\LL	.	8GG/	-o-	.	8d\	-o-	.	8g\	-o-	.	8b\	-o-	.	.	.	.	.	.	4b/	.	.	.
.	.	.	.	.	.	.	(16dd\	.	.	.	.	.	.	.	.	.	.	.	.	.	.	.	.	.	.	.	.	.	.
8r	.	.	8r	.	8b/J	.	16cc#\	.	8GG/	-nem	.	8d\	-nem	.	8g\yy	-nem	.	8b\	-nem	.	.	.	.	.	.	.	.	.	.
*	*	*	*	*	*	*	*	*	*	*Xij	*	*	*Xij	*	*	*Xij	*	*	*Xij	*	*	*	*	*	*	*	*	*	*
.	.	.	.	.	.	.	16dd\JJ)	.	.	.	.	.	.	.	.	.	.	.	.	.	.	.	.	.	.	.	.	.	.
!	!	!	!	!	!	!	!	!	!	!	!	!	!	!	!LO:LB:g=original	!	!	!	!	!	!	!	!	!	!	!	!	!	!
=46	=46	=46	=46	=46	=46	=46	=46	=46	=46	=46	=46	=46	=46	=46	=46	=46	=46	=46	=46	=46	=46	=46	=46	=46	=46	=46	=46	=46	=46
*	*	*	*	*	*tremolo	*	*	*	*	*	*	*	*	*	*	*	*	*	*	*	*	*	*	*	*	*	*	*	*
8C/	6 5	.	8e\	.	8g/L	.	8a/L|	.	4C/	noſ-	.	4e\	no-	.	(2g\	-no-	.	(4a\	no-	.	2.r	2.r	.	2.r	2.ryy	(4a/	.	4ee\	.
8r	.	.	8r	.	8g/	.	8a/|	.	.	.	.	.	.	.	.	.	.	.	.	.	.	.	.	.	.	.	.	.	.
8D/	6 4	.	8d\	.	8g/	.	8b/|	.	2D/	.	.	2d\	.	.	.	.	.	4b\	.	.	.	.	.	.	.	4b/	.	2dd\	.
8r	.	.	8r	.	8g/J	.	8b/|	.	.	.	.	.	.	.	.	.	.	.	.	.	.	.	.	.	.	.	.	.	.
*	*	*	*	*	*Xtremolo	*	*	*	*	*	*	*	*	*	*	*	*	*	*	*	*	*	*	*	*	*	*	*	*
8D/	x #	.	8d\	.	8f#/L	.	8a/|	.	.	.	.	.	.	.	4f#\)	.	.	4a\)	.	.	.	.	.	.	.	4cc/)	.	.	.
8r	.	.	8r	.	8f#/J	.	8a/J|	.	.	.	.	.	.	.	.	.	.	.	.	.	.	.	.	.	.	.	.	.	.
!	!	!	!	!	!	!	!	!	!LO:LB:g=original	!	!	!LO:LB:g=original	!	!	!	!	!	!	!	!	!	!	!	!	!	!	!	!	!
=47	=47	=47	=47	=47	=47	=47	=47	=47	=47	=47	=47	=47	=47	=47	=47	=47	=47	=47	=47	=47	=47	=47	=47	=47	=47	=47	=47	=47	=47
4GG/	.	.	4d\	.	4g/	.	4b/|	.	4G\	-tram	.	4d\	-ſtram	.	4g\	-stram	.	4b\|	-stram	.	2.r	2.r	.	2.r	2.ryy	4b/	.	4dd\	.
4G\	.	.	4d\	.	4B/	.	4g/|	.	4r	.	.	4r	.	.	4r	.	.	4r	.	.	.	.	.	.	.	4r	.	8r	.
.	.	.	.	.	.	.	.	.	.	.	.	.	.	.	.	.	.	.	.	.	.	.	.	.	.	.	.	8g/L	.
4r	.	.	4r	.	4r	.	4r	.	4r	.	.	4r	.	.	4r	.	.	4r	.	.	.	.	.	.	.	4r	.	8b/	.
.	.	.	.	.	.	.	.	.	.	.	.	.	.	.	.	.	.	.	.	.	.	.	.	.	.	.	.	8dd/J	.
!	!	!	!LO:LB:g=original	!	!	!	!	!	!	!	!	!	!	!	!	!	!	!	!	!	!	!	!	!	!	!	!	!	!
=48	=48	=48	=48	=48	=48	=48	=48	=48	=48	=48	=48	=48	=48	=48	=48	=48	=48	=48	=48	=48	=48	=48	=48	=48	=48	=48	=48	=48	=48
!	!	!LO:DY:t=po.	!LO:TX:a:t=2	!	!	!	!	!	!LO:TX:a:t=4	!	!	!	!	!	!	!	!	!	!	!	!	!	!	!	!	!	!	!	!
!	!	!	!LO:N:vis=0	!	!	!	!	!	!LO:N:vis=00	!	!	!LO:N:vis=00	!	!	!LO:N:vis=00	!	!	!LO:N:vis=00	!	!	!	!	!	!	!	!LO:N:vis=0	!	!	!
8G\	.	p	1.r	.	8d/	.	8b/L	.	0.r	.	.	0.r	.	.	0.r	.	.	0.r	.	.	2.r	2.r	.	2.r	2.ryy	1.r	.	(8gg\L	.
8r	.	.	.	.	8r	.	(8g/	.	.	.	.	.	.	.	.	.	.	.	.	.	.	.	.	.	.	.	.	8bb\	.
8D\	.	.	.	.	8f#/	.	8cc/	.	.	.	.	.	.	.	.	.	.	.	.	.	.	.	.	.	.	.	.	8aa\	.
8r	.	.	.	.	8r	.	8a/	.	.	.	.	.	.	.	.	.	.	.	.	.	.	.	.	.	.	.	.	8ccc\	.
!LO:LB:g=original	!	!	!	!	!	!	!	!	!	!	!	!	!	!	!	!	!	!	!	!	!	!	!	!	!	!	!	!	!
8D/	.	.	.	.	4r	.	8f#/	.	.	.	.	.	.	.	.	.	.	.	.	.	.	.	.	.	.	.	.	8aa\)	.
8r	.	.	.	.	.	.	8a/J)	.	.	.	.	.	.	.	.	.	.	.	.	.	.	.	.	.	.	.	.	8ff#\J	.
=49	=49	=49	=49	=49	=49	=49	=49	=49	=49	=49	=49	=49	=49	=49	=49	=49	=49	=49	=49	=49	=49	=49	=49	=49	=49	=49	=49	=49	=49
!	!	!	!	!	!	!	!	!	!	!	!	!	!	!	!	!	!	!	!	!	!	!	!	!	!	!	!	!LO:TX:a:t=P:problem:mixed beam	!
8GG/	.	.	.	.	8d/	.	8b\L	.	.	.	.	.	.	.	.	.	.	.	.	.	2.r	2.r	.	2.r	2.ryy	.	.	8gg\L	.
8r	.	.	.	.	8r	.	8dd\	.	.	.	.	.	.	.	.	.	.	.	.	.	.	.	.	.	.	.	.	8ff#\	.
4GG/	.	.	.	.	8d/	.	8b\	.	.	.	.	.	.	.	.	.	.	.	.	.	.	.	.	.	.	.	.	8gg\	.
.	.	.	.	.	8r	.	8dd\J	.	.	.	.	.	.	.	.	.	.	.	.	.	.	.	.	.	.	.	.	8g/	.
4r	.	.	.	.	4r	.	4r	.	.	.	.	.	.	.	.	.	.	.	.	.	.	.	.	.	.	.	.	8b/	.
.	.	.	.	.	.	.	.	.	.	.	.	.	.	.	.	.	.	.	.	.	.	.	.	.	.	.	.	8dd/J	.
=50	=50	=50	=50	=50	=50	=50	=50	=50	=50	=50	=50	=50	=50	=50	=50	=50	=50	=50	=50	=50	=50	=50	=50	=50	=50	=50	=50	=50	=50
!	!	!	!	!	!	!	!	!	!	!	!	!	!	!	!	!	!	!	!	!	!	!	!	!	!	!LO:TX:a:t=Solo	!	!	!
.	.	.	.	.	.	.	8qqg/	.	.	.	.	.	.	.	.	.	.	.	.	.	.	.	.	.	.	.	.	.	.
8GG/	.	.	8G/	.	4d/	.	4fn/	.	.	.	.	.	.	.	.	.	.	.	.	.	2.r	2.r	.	2.r	2.ryy	4dd\	.	4ffn\	.
8r	.	.	8r	.	.	.	.	.	.	.	.	.	.	.	.	.	.	.	.	.	.	.	.	.	.	.	.	.	.
.	.	.	.	.	8qe/	.	.	.	.	.	.	.	.	.	.	.	.	.	.	.	.	.	.	.	.	8qqee/	.	8qqgg/	.
8GG/	.	.	8G/	.	8d/L	.	8f/L	.	.	.	.	.	.	.	.	.	.	.	.	.	.	.	.	.	.	8dd\L	.	8ff\L	.
8r	.	.	8r	.	(8c#X/	.	(8e/	.	.	.	.	.	.	.	.	.	.	.	.	.	.	.	.	.	.	8cc#X\	.	8ee\	.
.	.	.	.	.	.	.	.	.	.	.	.	.	.	.	.	.	.	.	.	.	.	.	.	.	.	8qqee/	.	.	.
8GG/	.	.	8G/	.	8d/	.	8f/	.	.	.	.	.	.	.	.	.	.	.	.	.	.	.	.	.	.	8dd\	.	8ff\	.
.	.	.	.	.	.	.	.	.	.	.	.	.	.	.	.	.	.	.	.	.	.	.	.	.	.	.	.	8qqgg/	.
8r	.	.	8r	.	8c#/J)	.	8e/J)	.	.	.	.	.	.	.	.	.	.	.	.	.	.	.	.	.	.	8cc#\J	.	8ee\J	.
!	!	!	!	!	!LO:LB:g=original	!	!LO:LB:g=original	!	!	!	!	!	!	!	!	!	!	!	!	!	!	!	!	!	!	!LO:LB:g=original	!	!	!
=51	=51	=51	=51	=51	=51	=51	=51	=51	=51	=51	=51	=51	=51	=51	=51	=51	=51	=51	=51	=51	=51	=51	=51	=51	=51	=51	=51	=51	=51
4GG/	.	.	4G/	.	4.d/	.	4.f#/	.	.	.	.	.	.	.	.	.	.	.	.	.	2.r	2.r	.	2.r	2.ryy	4.dd\	.	4.ff#\	.
4GG/	.	.	4G/	.	.	.	.	.	.	.	.	.	.	.	.	.	.	.	.	.	.	.	.	.	.	.	.	.	.
.	.	.	.	.	8B/L	.	8d/L	.	.	.	.	.	.	.	.	.	.	.	.	.	.	.	.	.	.	8b\L	.	(8dd\L	.
!LO:TX:a:t=T&colon;	!	!	!	!	!	!	!	!	!	!	!	!	!	!	!	!	!	!	!	!	!	!	!	!	!	!	!	!	!
4r	.	.	8r	.	(8e/	.	(8g/	.	.	.	.	.	.	.	.	.	.	.	.	.	.	.	.	.	.	8ee\	.	8gg\	.
.	.	.	8r	.	8d/J)	.	8f#/J)	.	.	.	.	.	.	.	.	.	.	.	.	.	.	.	.	.	.	8dd\J	.	8ff#\J)	.
=52	=52	=52	=52	=52	=52	=52	=52	=52	=52	=52	=52	=52	=52	=52	=52	=52	=52	=52	=52	=52	=52	=52	=52	=52	=52	=52	=52	=52	=52
!	!	!LO:DY:t=for&colon;	!	!LO:DY:rj:t=fo	!	!LO:DY:a	!	!LO:DY:a	!LO:TX:a:t=T&colon;	!	!	!LO:TX:a:t=T&colon;	!	!	!LO:TX:a:t=T&colon;	!	!	!LO:TX:a:t=T;	!	!	!	!	!LO:DY:t=for&colon;	!	!	!	!LO:DY:t=for	!	!
4C/	.	f	4G/	f	4cn/	f	4e/|	f	4C/	qui	.	4c\	Qui	.	4g\	Qui	.	4ee\	Qui	.	4C/	4e/	f	4cc\	2.ryy	[2.ccn\	f	[2.ee\	fz
4c\	.	.	4c/	.	4G/	.	4ee\|	.	4C/	Se-	.	4c\	Se-	.	4g\	se-	.	4ee\	se-	.	8C/L	8e/L	.	8cc\L	.	.	.	.	.
.	.	.	.	.	.	.	.	.	.	.	.	.	.	.	.	.	.	.	.	.	8C/	8e/	.	8cc\	.	.	.	.	.
8r	.	.	8.r	.	8r	.	8r	.	4C/	-des	.	4c\	-des	.	4g\	-des	.	4ee\	-des	.	8C/	8e/	.	8cc\	.	.	.	.	.
16r	.	.	.	.	16r	.	16r	.	.	.	.	.	.	.	.	.	.	.	.	.	8C/J	8e/J	.	8cc\J	.	.	.	.	.
16C/	.	.	16c/	.	16g/	.	16ee\|	.	.	.	.	.	.	.	.	.	.	.	.	.	.	.	.	.	.	.	.	.	.
=53	=53	=53	=53	=53	=53	=53	=53	=53	=53	=53	=53	=53	=53	=53	=53	=53	=53	=53	=53	=53	=53	=53	=53	=53	=53	=53	=53	=53	=53
*	*	*	*	*	*	*	*	*	*	*ij	*	*	*ij	*	*	*ij	*	*	*ij	*	*	*	*	*	*	*	*	*	*
4AA/	n	.	4A/	.	4ee\	.	(4ccc\|	.	4A\	qui	.	4c\	Qui	.	4a\	Qui	.	4ee\	Qui	.	4C/	4cc\	.	4ee\	2.ryy	2.cc\_	.	2.ee\]	.
*	*	*	*	*	*	*	*	*	*	*	*	*	*	*	*	*	*	*	*	*	*	*tremolo	*	*tremolo	*	*	*	*	*
*	*	*	*	*	*	*	*	*	*	*	*	*	*	*	*	*	*	*	*	*	*	*2\right	*	*2\right	*	*	*	*	*
4A\	.	.	4A/	.	4cc\	.	4ee\)|	.	4A\	Se-	.	4c\	Se-	.	4a\	se-	.	4ee\	se-	.	4r	8cc\L	.	8ee\L	.	.	.	.	.
.	.	.	.	.	.	.	.	.	.	.	.	.	.	.	.	.	.	.	.	.	.	8cc\	.	8ee\	.	.	.	.	.
8r	.	.	8.r	.	8r	.	8r	.	4A\	-des	.	4c\	-des	.	4a\	-des	.	4ee\	-des	.	4r	8cc\	.	8ee\	.	.	.	.	.
16r	.	.	.	.	16r	.	16r	.	.	.	.	.	.	.	.	.	.	.	.	.	.	8cc\J	.	8ee\J	.	.	.	.	.
16A\	.	.	16A/	.	16cc\	.	16ee\|	.	.	.	.	.	.	.	.	.	.	.	.	.	.	.	.	.	.	.	.	.	.
!	!	!	!	!	!	!	!	!	!	!	!	!	!	!	!	!	!	!	!	!	!	!	!	!	!	!	!	!LO:LB:g=original	!
=54	=54	=54	=54	=54	=54	=54	=54	=54	=54	=54	=54	=54	=54	=54	=54	=54	=54	=54	=54	=54	=54	=54	=54	=54	=54	=54	=54	=54	=54
4Fn\	6 5	.	4A/	.	4cc\	.	4dd\|	.	4F#\	qui	.	4c\	Qui	.	4a\	Qui	.	4dd\	Qui	.	2.r	4cc\	.	4dd\	2.ryy	2.cc\]	.	[2.dd\	.
4FF#/	.	.	4A/	.	4d/	.	4ccc\|	.	4F#\	Se-	.	4c\	Se-	.	4a\	se-	.	4dd\	se-	.	.	8cc\L	.	8dd\L	.	.	.	.	.
.	.	.	.	.	.	.	.	.	.	.	.	.	.	.	.	.	.	.	.	.	.	8cc\	.	8dd\	.	.	.	.	.
8r	.	.	8.r	.	8r	.	8r	.	4F#\	-des	.	4c\	-des	.	4a\	-des	.	4dd\	-des	.	.	8cc\	.	8dd\	.	.	.	.	.
16r	.	.	.	.	16r	.	16r	.	.	.	.	.	.	.	.	.	.	.	.	.	.	8cc\J	.	8dd\J	.	.	.	.	.
16F\	.	.	16d\	.	16aa\	.	16ccc\|	.	.	.	.	.	.	.	.	.	.	.	.	.	.	.	.	.	.	.	.	.	.
!LO:LB:g=original	!	!	!	!	!	!	!	!	!	!	!	!	!	!	!	!	!	!LO:LB:g=original	!	!	!	!	!	!	!	!	!	!	!
=55	=55	=55	=55	=55	=55	=55	=55	=55	=55	=55	=55	=55	=55	=55	=55	=55	=55	=55	=55	=55	=55	=55	=55	=55	=55	=55	=55	=55	=55
4G\	.	.	4d\	.	4gg\	.	4bb\|	.	4G\	qui	.	4B\	Qui	.	4g\	Qui	.	4dd\	Qui	.	4GG/	4g/	.	4dd\	2.ryy	2.b\	.	2.dd\]	.
*	*	*	*	*	*	*	*	*	*	*	*	*	*	*	*	*	*	*	*	*	*tremolo	*	*	*	*	*	*	*	*
4GG/	.	.	4g\	.	4dd\	.	4b\|	.	4G\	Se-	.	4B\	Se-	.	4g\	se-	.	4dd\	se-	.	8GG/L	8g/L	.	8dd\L	.	.	.	.	.
.	.	.	.	.	.	.	.	.	.	.	.	.	.	.	.	.	.	.	.	.	8GG/	8g/	.	8dd\	.	.	.	.	.
8r	.	.	8.r	.	8r	.	8r	.	4G\	-des	.	4B\	-des	.	4g\	-des	.	4dd\	-des	.	8GG/	8g/	.	8dd\	.	.	.	.	.
*	*	*	*	*	*	*	*	*	*	*Xij	*	*	*Xij	*	*	*Xij	*	*	*Xij	*	*	*	*	*	*	*	*	*	*
16r	.	.	.	.	16r	.	16r	.	.	.	.	.	.	.	.	.	.	.	.	.	8GG/J	8g/J	.	8dd\J	.	.	.	.	.
16G\	.	.	16g\	.	16dd\	.	16bb\|	.	.	.	.	.	.	.	.	.	.	.	.	.	.	.	.	.	.	.	.	.	.
!	!	!	!LO:LB:g=original	!	!	!	!	!	!	!	!	!	!	!	!	!	!	!	!	!	!	!	!	!	!	!	!	!	!
=56	=56	=56	=56	=56	=56	=56	=56	=56	=56	=56	=56	=56	=56	=56	=56	=56	=56	=56	=56	=56	=56	=56	=56	=56	=56	=56	=56	=56	=56
4C/	5_ 3_	.	4g\	.	4ee\	.	4ccc\	.	4C/	ad	.	4c\	ad	.	4g\	ad	.	4ee\	ad	.	4C/	4e/	.	4cc\	2.ryy	4cc\	.	4ee\	.
4c\	.	.	4c\	.	8.ee\L	.	8.gg\L	.	4C/	dex-	.	4c\	dex-	.	4g\	dex-	.	4ee\	dex-	.	4C/	8.c/L	.	8.cc\L	.	4ee\	.	4gg\	.
.	.	.	.	.	16cc\Jk	.	16ee\K	.	.	.	.	.	.	.	.	.	.	.	.	.	.	16c/K	.	16cc\K	.	.	.	.	.
8r	.	.	8.r	.	8.ffn\L	.	8.aa\	.	4C/	-tram	.	4c\	-tram	.	4a\	-tram	.	4ffn\	-tram	.	4C/	8.c/	.	8.cc\	.	4ffn\	.	4aa\	.
16r	.	.	.	.	.	.	.	.	.	.	.	.	.	.	.	.	.	.	.	.	.	.	.	.	.	.	.	.	.
16C/	6 4	.	16c\	.	16aa\Jk	.	16ccc\Jk	.	.	.	.	.	.	.	.	.	.	.	.	.	.	16c/Jk	.	16cc\Jk	.	.	.	.	.
!	!	!	!	!	!	!	!	!	!	!	!	!	!	!	!LO:LB:g=original	!	!	!	!	!	!	!	!	!LO:LB:g=original	!	!	!	!	!
=57	=57	=57	=57	=57	=57	=57	=57	=57	=57	=57	=57	=57	=57	=57	=57	=57	=57	=57	=57	=57	=57	=57	=57	=57	=57	=57	=57	=57	=57
4C/	5_ 3_	.	4c\	.	4ee\	.	4gg\	.	2C/	Pa-	.	2c\	Pa-	.	2g\	Pa-	.	2ee\	Pa-	.	4C/	4c/	.	4cc\	2.ryy	2ee\	.	2gg\	.
!	!	!	!	!	!	!	!	!	!	!	!	!	!	!	!	!	!	!	!	!	!	!LO:SIC:v:t:=custos e na końcu linijki	!	!	!	!	!	!	!
!	!	!	!	!	!	!	!LO:LB:g=original	!	!	!	!	!	!	!	!	!	!	!	!	!	!	!LO:LB:g=original	!	!	!	!	!	!	!
4c\	.	.	4g\	.	8.cc/L	.	8.ee\L	.	.	.	.	.	.	.	.	.	.	.	.	.	4C/	8.e/L	.	8.cc\L	.	.	.	.	.
.	X X	.	.	.	16e/Jk	.	16cc\K	.	.	.	.	.	.	.	.	.	.	.	.	.	.	16e/K	.	16cc\K	.	.	.	.	.
!	!	!	!	!	!LO:LB:g=original	!	!	!	!	!	!	!	!	!	!	!	!	!	!	!	!	!	!	!	!	!	!	!	!
8r	.	.	8.r	.	8.cc\L	.	8.ee\	.	4C/	-tris	.	4c\	-tris	.	4g\	-tris	.	4ee\	-tris	.	4C/	8.e/	.	8.cc\	.	4cc\	.	4ee\	.
16r	.	.	.	.	.	.	.	.	.	.	.	.	.	.	.	.	.	.	.	.	.	.	.	.	.	.	.	.	.
16C/	.	.	16c\	.	16ee\Jk	.	16gg\Jk	.	.	.	.	.	.	.	.	.	.	.	.	.	.	16e/Jk	.	16cc\Jk	.	.	.	.	.
!	!	!	!	!	!	!	!	!	!	!	!	!	!	!	!	!	!	!	!	!	!LO:LB:g=original	!	!	!	!	!	!	!	!
=58	=58	=58	=58	=58	=58	=58	=58	=58	=58	=58	=58	=58	=58	=58	=58	=58	=58	=58	=58	=58	=58	=58	=58	=58	=58	=58	=58	=58	=58
4G\	.	.	4g\	.	4b\	.	4dd\|	.	4G\	ad	.	4B\	ad	.	4g\	ad	.	4dd\	ad	.	4GG/	4g/	.	4dd\	2.ryy	4b\	.	4dd\	.
4BB/	6 5	.	4G/	.	8.ffn\L	.	4ddd\|	.	4BB/	dex-	.	4d\	dex-	.	4g\	dex-	.	4ffn\	dex-	.	4r	4dd\	.	4ff#\	.	4dd\	.	4ffn\	.
.	.	.	.	.	16dd\Jk	.	.	.	.	.	.	.	.	.	.	.	.	.	.	.	.	.	.	.	.	.	.	.	.
8r	.	.	8.r	.	8.ee\L	.	8r	.	4C/	-tram	.	4c\	-tram	.	4g\	-tram	.	4ee\	-tram	.	4C/	4cc\	.	4ee\	.	4cc\	.	4ee\	.
16r	.	.	.	.	.	.	16r	.	.	.	.	.	.	.	.	.	.	.	.	.	.	.	.	.	.	.	.	.	.
16C/	.	.	16g\	.	16ee\Jk	.	16ccc\|	.	.	.	.	.	.	.	.	.	.	.	.	.	.	.	.	.	.	.	.	.	.
!	!	!	!	!	!	!	!	!	!LO:LB:g=original	!	!	!LO:LB:g=original	!	!	!	!	!	!	!	!	!	!	!	!	!	!	!	!	!
=59	=59	=59	=59	=59	=59	=59	=59	=59	=59	=59	=59	=59	=59	=59	=59	=59	=59	=59	=59	=59	=59	=59	=59	=59	=59	=59	=59	=59	=59
4G\	4	.	4g\	.	(4ee\	.	(4ccc\	.	4G\	Pa-	.	4c\	Pa-	.	4g\	Pa-	.	4ee\	Pa-	.	4GG/	4cc\	.	4ee\	2.ryy	4cc\	.	4ee\	.
*	*	*	*	*	*	*	*	*	*	*	*	*	*	*	*	*	*	*	*	*	*	*	*	*	*	*tremolo	*	*tremolo	*
!	!	!	!	!	!LO:TX:a:t=P:problem:mixed beam	!	!LO:TX:a:t=P:problem:mixed beam	!	!	!	!	!	!	!	!	!	!	!	!	!	!	!	!	!	!	!LO:TX:a:t=....	!	!	!
4GG/	3	.	4g\	.	8dd\L)	.	8bb\L)	.	4GG/	-tris	.	4B\	-tris	.	4g\	-tris	.	4dd\	-tris	.	8GG/L	8g/L	.	8dd\L	.	8b\L	.	8dd\L	.
.	.	.	.	.	8g/|	.	8b/|	.	.	.	.	.	.	.	.	.	.	.	.	.	8GG/	8g/	.	8dd\	.	8b\	.	8dd\	.
4r	.	.	4r	.	8g/|	.	8b/|	.	4r	.	.	4r	.	.	4r	.	.	4r	.	.	8GG/	8g/	.	8dd\	.	8b\	.	8dd\	.
.	.	.	.	.	8g/J|	.	8b/J|	.	.	.	.	.	.	.	.	.	.	.	.	.	8GG/J	8g/J	.	8dd\J	.	8b\J	.	8dd\J	.
*	*	*	*	*	*	*	*	*	*	*	*	*	*	*	*	*	*	*	*	*	*Xtremolo	*Xtremolo	*	*Xtremolo	*	*Xtremolo	*	*Xtremolo	*
=60	=60	=60	=60	=60	=60	=60	=60	=60	=60	=60	=60	=60	=60	=60	=60	=60	=60	=60	=60	=60	=60	=60	=60	=60	=60	=60	=60	=60	=60
!LO:TX:a:t=Solo.	!	!LO:DY:t=po.	!	!LO:DY:t=p	!	!LO:DY:a	!	!LO:DY:a	!LO:N:vis=0	!	!	!LO:TX:a:t=Solŏ	!	!	!LO:N:vis=00	!	!	!LO:TX:a:t=Solŏ	!	!	!	!	!	!	!	!LO:TX:a:t=Solo	!	!LO:TX:a:t=Solo	!
4G\	.	p	8d\	p	8g/	p	8b\|	p	1.r	.	.	(4G/	mi-	.	0.r	.	.	(4b\	mi-	.	4GG/	4g/	.	4dd\	2.ryy	4g/	.	4b\	.
!	!	!	!	!	!	!	!	!	!	!	!	!	!	!	!	!	!	!	!	!	!	!	!	!	!	!	!	!	!LO:DY:t=po.
.	.	.	8r	.	8r	.	8r	.	.	.	.	.	.	.	.	.	.	.	.	.	.	.	.	.	.	.	.	.	p
!	!	!	!	!	!	!	!	!	!	!	!	!	!	!	!	!	!	!	!	!	!	!	!	!	!	!	!LO:DY:t=p	!	!
.	.	.	.	.	.	.	.	.	.	.	.	.	.	.	.	.	.	.	.	.	.	.	.	.	.	8qqb/	p	8qqdd/	.
4r	.	.	4r	.	8a/	.	8cc\|	.	.	.	.	4A/)	-ſe-	.	.	.	.	4cc\)	.	.	4r	4r	.	4r	.	8a/L	.	8cc\L	.
.	.	.	.	.	8r	.	8r	.	.	.	.	.	.	.	.	.	.	.	.	.	.	.	.	.	.	(16g/L	.	16b\L	.
.	.	.	.	.	.	.	.	.	.	.	.	.	.	.	.	.	.	.	.	.	.	.	.	.	.	16a/JJ)	.	16cc\JJ	.
4Fn\	4 2	.	4r	.	8b/	.	8dd\|	.	.	.	.	4B\	.	.	.	.	.	4dd\|	-ſe-	.	4r	4r	.	4r	.	4b/	.	4dd\	.
.	.	.	.	.	8r	.	8r	.	.	.	.	.	.	.	.	.	.	.	.	.	.	.	.	.	.	.	.	.	.
=61	=61	=61	=61	=61	=61	=61	=61	=61	=61	=61	=61	=61	=61	=61	=61	=61	=61	=61	=61	=61	=61	=61	=61	=61	=61	=61	=61	=61	=61
!	!	!	!	!	!	!	!	!	!	!	!	!	!	!	!	!	!	!	!	!	!LO:N:vis=00	!LO:N:vis=00	!	!LO:N:vis=00	!	!	!	!	!
8E\L	6	.	8g\	.	8cc\	.	8ee\|	.	.	.	.	(4c\	-re-	.	.	.	.	4ee\	-re-	.	0.r	0.r	.	0.r	2.ryy	4cc\	.	4ee\	.
8E\	.	.	8r	.	8r	.	8r	.	.	.	.	.	.	.	.	.	.	.	.	.	.	.	.	.	.	.	.	.	.
.	.	.	.	.	.	.	.	.	.	.	.	.	.	.	.	.	.	.	.	.	.	.	.	.	.	8qqee/	.	8qqgg/	.
8D\	10 8	.	8fn\	.	8dd\	.	8ffn\|	.	.	.	.	4d\)	.	.	.	.	.	4ffn\	.	.	.	.	.	.	.	8dd\L	.	8ff#\L	.
8D\	.	.	8r	.	8r	.	8r	.	.	.	.	.	.	.	.	.	.	.	.	.	.	.	.	.	.	16cc\L	.	16ee\L	.
.	.	.	.	.	.	.	.	.	.	.	.	.	.	.	.	.	.	.	.	.	.	.	.	.	.	16dd\JJ	.	16ff#\JJ	.
!	!	!	!	!	!	!	!	!	!	!	!	!	!	!	!	!	!	!LO:LB:g=original	!	!	!	!	!	!	!	!	!	!	!
8C\	10 5	.	8e\	.	8ee\	.	8gg\|	.	.	.	.	4e\	-re	.	.	.	.	4gg\	-re	.	.	.	.	.	.	4ee\	.	4gg\	.
8C\J	.	.	8r	.	8r	.	8r	.	.	.	.	.	.	.	.	.	.	.	.	.	.	.	.	.	.	.	.	.	.
!LO:LB:g=original	!	!	!LO:LB:g=original	!	!	!	!LO:PB:g=original	!	!	!	!	!	!	!	!	!	!	!	!	!	!	!	!	!	!	!	!	!	!
=62	=62	=62	=62	=62	=62	=62	=62	=62	=62	=62	=62	=62	=62	=62	=62	=62	=62	=62	=62	=62	=62	=62	=62	=62	=62	=62	=62	=62	=62
!	!	!	!	!	!	!	!	!	!	!	!	!	!	!	!	!	!	!	!	!	!	!	!	!	!	!LO:TX:a:t=6.	!	!	!
!	!	!	!	!	!	!	!	!	!	!	!	!	!	!	!	!	!	!LO:N:vis=0	!	!	!	!	!	!	!	!LO:N:vis=00	!	!LO:N:vis=00	!
*	*	*	*	*	*	*	*	*	*	*	*	*	*ij	*	*	*	*	*	*	*	*	*	*	*	*	*	*	*	*
4E\	#_	.	8B/	.	8e/L	.	8g#X/L|	.	4E\	mi-	.	(4G#X/	mi-	.	.	.	.	1.r	.	.	.	.	.	.	2.ryy	0.r	.	0.r	.
.	.	.	8r	.	8e/	.	8g#/|	.	.	.	.	.	.	.	.	.	.	.	.	.	.	.	.	.	.	.	.	.	.
4r	.	.	4r	.	8f#X/	.	8a/|	.	4F#X\	-ſe-	.	4A/)	-ſe-	.	.	.	.	.	.	.	.	.	.	.	.	.	.	.	.
.	.	.	.	.	8f#/J	.	8a/J|	.	.	.	.	.	.	.	.	.	.	.	.	.	.	.	.	.	.	.	.	.	.
.	.	.	.	.	8qa/	.	8qcc/	.	.	.	.	.	.	.	.	.	.	.	.	.	.	.	.	.	.	.	.	.	.
4D\	.	.	4r	.	8g#X/L	.	8b/L	.	4G#X\	.	.	4B\	.	.	.	.	.	.	.	.	.	.	.	.	.	.	.	.	.
.	.	.	.	.	(16f#/L	.	(16a/L	.	.	.	.	.	.	.	.	.	.	.	.	.	.	.	.	.	.	.	.	.	.
.	X	.	.	.	16g#/JJ)	.	16b/JJ)	.	.	.	.	.	.	.	.	.	.	.	.	.	.	.	.	.	.	.	.	.	.
=63	=63	=63	=63	=63	=63	=63	=63	=63	=63	=63	=63	=63	=63	=63	=63	=63	=63	=63	=63	=63	=63	=63	=63	=63	=63	=63	=63	=63	=63
8C/L	6	.	8e\L	.	8a/L	.	8cc\L|	.	(4A\	-re-	.	(4c\	-re-	.	.	.	.	.	.	.	.	.	.	.	2.ryy	.	.	.	.
8C/	.	.	8e\	.	8a/J	.	8cc\|	.	.	.	.	.	.	.	.	.	.	.	.	.	.	.	.	.	.	.	.	.	.
!	!	!	!	!	!LO:LB:g=original	!	!	!	!	!	!	!	!	!	!	!	!	!	!	!	!	!	!	!	!	!	!	!	!
8BB/	10 8	.	8d\	.	8b\L	.	8dd\|	.	4B\)	.	.	4d\)	.	.	.	.	.	.	.	.	.	.	.	.	.	.	.	.	.
8BB/	.	.	8d\J	.	8b\	.	8dd\|	.	.	.	.	.	.	.	.	.	.	.	.	.	.	.	.	.	.	.	.	.	.
8AA/	5 3	.	8c\	.	8cc\	.	8ee\|	.	4c\	-re	.	4e\	-re	.	.	.	.	.	.	.	.	.	.	.	.	.	.	.	.
*	*	*	*	*	*	*	*	*	*	*	*	*	*Xij	*	*	*	*	*	*	*	*	*	*	*	*	*	*	*	*
8AA/J	.	.	8r	.	8cc\J	.	8ee\J|	.	.	.	.	.	.	.	.	.	.	.	.	.	.	.	.	.	.	.	.	.	.
=64	=64	=64	=64	=64	=64	=64	=64	=64	=64	=64	=64	=64	=64	=64	=64	=64	=64	=64	=64	=64	=64	=64	=64	=64	=64	=64	=64	=64	=64
!	!	!	!	!	!	!	!	!	!LO:N:vis=00	!	!	!LO:N:vis=00	!	!	!	!	!	!	!	!	!	!	!	!	!	!	!	!	!
4D#X/	.	.	4d#X\	.	8a/L	.	8cc\L|	.	0.r	.	.	0.r	.	.	(4a\	mi-	.	(4cc\	mi-	.	.	.	.	.	2.ryy	.	.	.	.
.	.	.	.	.	8cc/	.	8aa\|	.	.	.	.	.	.	.	.	.	.	.	.	.	.	.	.	.	.	.	.	.	.
4r	.	.	4r	.	8g/	.	8b\|	.	.	.	.	.	.	.	4g\)	.	.	4b\)	.	.	.	.	.	.	.	.	.	.	.
.	.	.	.	.	8cc/	.	8ggn\|	.	.	.	.	.	.	.	.	.	.	.	.	.	.	.	.	.	.	.	.	.	.
4D#/	.	.	4B/	.	8f#/	.	8a\|	.	.	.	.	.	.	.	4f#X\	-ſe-	.	4a\|	-ſe-	.	.	.	.	.	.	.	.	.	.
.	.	.	.	.	8a/J	.	8ff#\J|	.	.	.	.	.	.	.	.	.	.	.	.	.	.	.	.	.	.	.	.	.	.
=65	=65	=65	=65	=65	=65	=65	=65	=65	=65	=65	=65	=65	=65	=65	=65	=65	=65	=65	=65	=65	=65	=65	=65	=65	=65	=65	=65	=65	=65
!	!	!	!	!	!	!	!LO:TX:a:t=P:problem:mixed beam	!	!	!	!	!	!	!	!	!	!	!	!	!	!	!	!	!	!	!	!	!	!
!	!	!	!	!	!	!	!	!	!	!	!	!	!	!	!	!	!	!	!	!	!LO:N:vis=00	!LO:N:vis=00	!	!LO:N:vis=00	!	!	!	!	!
4E\	.	.	4B/	.	8e/L	.	8g/L|	.	.	.	.	.	.	.	(4e\	-re-	.	(4g\	-re-	.	0.r	0.r	.	0.r	2.ryy	.	.	.	.
.	.	.	.	.	8g/	.	8ee\J|	.	.	.	.	.	.	.	.	.	.	.	.	.	.	.	.	.	.	.	.	.	.
!	!	!	!	!	!	!	!LO:TX:a:t=P:problem:mixed beam	!	!	!	!	!	!	!	!	!	!	!	!	!	!	!	!	!	!	!	!	!	!
4r	.	.	4r	.	8f#/	.	8a/L|	.	.	.	.	.	.	.	4f#\)	.	.	4a\)	.	.	.	.	.	.	.	.	.	.	.
.	.	.	.	.	8a/	.	8ff#\J|	.	.	.	.	.	.	.	.	.	.	.	.	.	.	.	.	.	.	.	.	.	.
!	!	!	!	!	!	!	!LO:TX:a:t=P:problem:mixed beam	!	!	!	!	!	!	!	!	!	!	!	!	!	!	!	!	!	!	!	!	!	!
4E\	.	.	4r	.	8g/	.	8b/L|	.	.	.	.	.	.	.	4g\	-re	.	4b\|	-re	.	.	.	.	.	.	.	.	.	.
.	.	.	.	.	8b/J	.	8gg\J|	.	.	.	.	.	.	.	.	.	.	.	.	.	.	.	.	.	.	.	.	.	.
=66	=66	=66	=66	=66	=66	=66	=66	=66	=66	=66	=66	=66	=66	=66	=66	=66	=66	=66	=66	=66	=66	=66	=66	=66	=66	=66	=66	=66	=66
!	!	!	!	!	!	!	!	!	!	!	!	!	!	!	!	!	!	!	!	!	!	!	!	!	!	!LO:N:vis=0	!	!LO:N:vis=0	!
8C/L	10_ 5_	.	8c/L	.	8ee\	.	8gg\	.	.	.	.	.	.	.	2.g\	no-	.	2.ee\	no-	.	.	.	.	.	2.ryy	1.r	.	1.r	.
8C/	.	.	8c/	.	4e/	.	4g/	.	.	.	.	.	.	.	.	.	.	.	.	.	.	.	.	.	.	.	.	.	.
8BB/	.	.	8B/	.	.	.	.	.	.	.	.	.	.	.	.	.	.	.	.	.	.	.	.	.	.	.	.	.	.
8BB/	X X	.	8B/	.	4e/	.	4g/	.	.	.	.	.	.	.	.	.	.	.	.	.	.	.	.	.	.	.	.	.	.
8AA#X/	.	.	8A#X/	.	.	.	.	.	.	.	.	.	.	.	.	.	.	.	.	.	.	.	.	.	.	.	.	.	.
8AA#/J	.	.	8A#/J	.	8e/	.	8g/	.	.	.	.	.	.	.	.	.	.	.	.	.	.	.	.	.	.	.	.	.	.
=67	=67	=67	=67	=67	=67	=67	=67	=67	=67	=67	=67	=67	=67	=67	=67	=67	=67	=67	=67	=67	=67	=67	=67	=67	=67	=67	=67	=67	=67
4BB/	#	.	4B/	.	(8d#X/L	.	4f#/	.	.	.	.	.	.	.	4f#\	-bis	.	4dd#X\	-bis	.	.	.	.	.	2.ryy	.	.	.	.
.	.	.	.	.	8f#/J)	.	.	.	.	.	.	.	.	.	.	.	.	.	.	.	.	.	.	.	.	.	.	.	.
!	!	!LO:DY:t=mf.	!	!LO:DY:t=fr.	!	!	!	!	!	!	!	!	!	!	!	!	!	!	!	!	!	!	!	!	!	!	!	!	!
(8An\L	.	mf	(8a\L	f	8a/L	.	8a/L	.	.	.	.	.	.	.	4r	.	.	4r	.	.	.	.	.	.	.	.	.	.	.
8c\J)	.	.	8cc\)	.	(8cc/	.	8cc/	.	.	.	.	.	.	.	.	.	.	.	.	.	.	.	.	.	.	.	.	.	.
!LO:TX:b:t=Viol.	!	!	!	!	!	!	!	!	!	!	!	!	!	!	!	!	!	!	!	!	!	!	!	!	!	!	!	!	!
(8F#X\L	.	.	(8f#\	.	8f#/	.	(8f#/	.	.	.	.	.	.	.	4r	.	.	4r	.	.	.	.	.	.	.	.	.	.	.
8A\J)	.	.	8a\J)	.	8a/J)	.	8a/J)	.	.	.	.	.	.	.	.	.	.	.	.	.	.	.	.	.	.	.	.	.	.
!	!	!	!	!	!	!	!	!	!	!	!	!	!	!	!	!	!	!	!	!	!	!	!	!	!	!LO:LB:g=original	!	!	!
=68	=68	=68	=68	=68	=68	=68	=68	=68	=68	=68	=68	=68	=68	=68	=68	=68	=68	=68	=68	=68	=68	=68	=68	=68	=68	=68	=68	=68	=68
!	!	!	!	!	!	!	!	!LO:DY:a	!	!	!LO:DY:a:t=po	!	!	!LO:DY:a:t=po	!	!	!LO:DY:a:t=po	!	!	!LO:DY:a:t=po	!	!	!	!	!	!	!LO:DY:t=p&colon;	!	!LO:DY:t=p
4D#X/	6_ 5_	.	4B/	.	4f#/	.	4a/	p	2D#X\	mi-	p	2B\	mi-	p	2f#\	mi-	p	2a\	mi-	p	.	.	.	.	2.ryy	2.a/	p	2.ff#X\	p
4D#/	.	.	4B/	.	4a/	.	4ff#\|	.	.	.	.	.	.	.	.	.	.	.	.	.	.	.	.	.	.	.	.	.	.
8r	.	.	8.r	.	8r	.	8r	.	4D#\	-ſe-	.	4B\	-ſe-	.	4f#\	-ſe-	.	4a\	-ſe-	.	.	.	.	.	.	.	.	.	.
16r	.	.	.	.	16r	.	16r	.	.	.	.	.	.	.	.	.	.	.	.	.	.	.	.	.	.	.	.	.	.
16D#/	x x	.	16B/	.	16f#/	.	16a/|	.	.	.	.	.	.	.	.	.	.	.	.	.	.	.	.	.	.	.	.	.	.
!LO:LB:g=original	!	!	!LO:LB:g=original	!	!	!	!LO:LB:g=original	!	!	!	!	!	!	!	!	!	!	!	!	!	!	!	!	!	!	!	!	!	!
=69	=69	=69	=69	=69	=69	=69	=69	=69	=69	=69	=69	=69	=69	=69	=69	=69	=69	=69	=69	=69	=69	=69	=69	=69	=69	=69	=69	=69	=69
!	!	!	!	!	!	!	!	!	!	!	!	!	!	!	!	!	!	!	!	!	!LO:N:vis=00	!LO:N:vis=00	!	!LO:N:vis=00	!	!	!	!	!
4E\	n	.	4B/	.	4e/	.	4g/|	.	2E\	-re-	.	2B\	-re-	.	2e\	-re-	.	2g\	-re-	.	0.r	0.r	.	0.r	2.ryy	2.g/	.	2.ee\	.
4EE/	.	.	4B/	.	4g/	.	4ee\|	.	.	.	.	.	.	.	.	.	.	.	.	.	.	.	.	.	.	.	.	.	.
8r	.	.	8.r	.	8r	.	8r	.	4GG/	-re	.	4B\	-re	.	4e\	-re	.	4g\	-re	.	.	.	.	.	.	.	.	.	.
16r	.	.	.	.	16r	.	16r	.	.	.	.	.	.	.	.	.	.	.	.	.	.	.	.	.	.	.	.	.	.
16GG/	6	.	16B/	.	16e/	.	16g/|	.	.	.	.	.	.	.	.	.	.	.	.	.	.	.	.	.	.	.	.	.	.
!	!	!	!	!	!LO:LB:g=original	!	!	!	!	!	!	!	!	!	!LO:LB:g=original	!	!	!	!	!	!	!	!	!	!	!	!	!	!
=70	=70	=70	=70	=70	=70	=70	=70	=70	=70	=70	=70	=70	=70	=70	=70	=70	=70	=70	=70	=70	=70	=70	=70	=70	=70	=70	=70	=70	=70
*	*	*	*	*	*tremolo	*	*	*	*	*	*	*	*	*	*	*	*	*	*	*	*	*	*	*	*	*	*	*	*
4AA/	6 5	.	8c/L	.	8e/L	.	4f#/	.	4AA/	no-	.	4c\	no-	.	(2e\	no-	.	(4f#X/	no-	.	.	.	.	.	2.ryy	4f#X/	.	2ee\	.
.	.	.	8c/J	.	8e/	.	.	.	.	.	.	.	.	.	.	.	.	.	.	.	.	.	.	.	.	.	.	.	.
*	*	*	*tremolo	*	*	*	*	*	*	*	*	*	*	*	*	*	*	*	*	*	*	*	*	*	*	*	*	*	*
4BB/	6 4	.	8B/L	.	8e/	.	8g/L	.	2BB/	.	.	2B\	.	.	.	.	.	4g/)	.	.	.	.	.	.	.	4g/	.	.	.
.	.	.	8B/	.	8e/J	.	8g/	.	.	.	.	.	.	.	.	.	.	.	.	.	.	.	.	.	.	.	.	.	.
*	*	*	*	*	*Xtremolo	*	*	*	*	*	*	*	*	*	*	*	*	*	*	*	*	*	*	*	*	*	*	*	*
8r	.	.	8B/	.	8d#X/L	.	8f#/	.	.	.	.	.	.	.	4d#X\)	.	.	4f#/	.	.	.	.	.	.	.	4f#/	.	4dd#X\	.
16r	.	.	8B/J	.	8d#/J	.	8f#/J	.	.	.	.	.	.	.	.	.	.	.	.	.	.	.	.	.	.	.	.	.	.
16BB/	#	.	.	.	.	.	.	.	.	.	.	.	.	.	.	.	.	.	.	.	.	.	.	.	.	.	.	.	.
*	*	*	*Xtremolo	*	*	*	*	*	*	*	*	*	*	*	*	*	*	*	*	*	*	*	*	*	*	*	*	*	*
!	!	!	!	!	!	!	!	!	!	!	!	!LO:LB:g=original	!	!	!	!	!	!	!	!	!	!	!	!	!	!	!	!	!
=71	=71	=71	=71	=71	=71	=71	=71	=71	=71	=71	=71	=71	=71	=71	=71	=71	=71	=71	=71	=71	=71	=71	=71	=71	=71	=71	=71	=71	=71
4E\	n	.	4B/	.	4e/	.	4g/|	.	4E\	-biſ	.	4B\	-biſ	.	4e\	-biſ	.	4g/	-biſ	.	.	.	.	.	2.ryy	4g/	.	2ee\	.
!	!	!	!	!	!	!	!	!	!	!	!	!	!	!	!	!	!	!LO:LB:g=original	!	!	!	!	!	!	!	!	!	!	!
4EE/	#_	.	4d/	.	4g#X/	.	4b/|	.	4E\	mi-	.	4d\	mi-	.	4g#X\	mi-	.	4b\	mi-	.	.	.	.	.	.	2g#X/	.	.	.
8r	.	.	8.r	.	8r	.	8r	.	4E\	-ſe-	.	4d\	-ſe-	.	4g#\	-ſe-	.	4b\	-ſe-	.	.	.	.	.	.	.	.	4b\	.
16r	.	.	.	.	16r	.	16r	.	.	.	.	.	.	.	.	.	.	.	.	.	.	.	.	.	.	.	.	.	.
16E\	x	.	16d\	.	16g#/	.	16b\|	.	.	.	.	.	.	.	.	.	.	.	.	.	.	.	.	.	.	.	.	.	.
=72	=72	=72	=72	=72	=72	=72	=72	=72	=72	=72	=72	=72	=72	=72	=72	=72	=72	=72	=72	=72	=72	=72	=72	=72	=72	=72	=72	=72	=72
4E\	.	.	4c/	.	4a/	.	4cc\|	.	2E\	-re-	.	(4c\	-re-	.	2a\	-re-	.	2cc\	-re-	.	.	.	.	.	2.ryy	2.a/	.	2.cc\	.
4EE/	.	.	4A/	.	4cc/	.	4ee\|	.	.	.	.	4e\)	.	.	.	.	.	.	.	.	.	.	.	.	.	.	.	.	.
8r	.	.	8.r	.	8r	.	8r	.	4E\	-re	.	4e\	-re	.	4a\	-re	.	4cc\	-re	.	.	.	.	.	.	.	.	.	.
16r	.	.	.	.	16r	.	16r	.	.	.	.	.	.	.	.	.	.	.	.	.	.	.	.	.	.	.	.	.	.
16E\	.	.	16e\	.	16a/	.	16cc\|	.	.	.	.	.	.	.	.	.	.	.	.	.	.	.	.	.	.	.	.	.	.
=73	=73	=73	=73	=73	=73	=73	=73	=73	=73	=73	=73	=73	=73	=73	=73	=73	=73	=73	=73	=73	=73	=73	=73	=73	=73	=73	=73	=73	=73
!	!	!	!	!	!	!	!	!	!	!	!	!	!	!	!	!	!	!	!	!	!LO:N:vis=0	!LO:N:vis=0	!	!LO:N:vis=0	!	!	!	!	!
4E\	.	.	8c/L	.	8a/L	.	8dd#X\	.	2.E\	no-	.	4c\	no-	.	4a\	no-	.	2.dd#X\	no-	.	1.r	1.r	.	1.r	2.ryy	4a/	.	2.dd#X\	.
.	.	.	8c/	.	8a/	.	4dd#\	.	.	.	.	.	.	.	.	.	.	.	.	.	.	.	.	.	.	.	.	.	.
4EE/	.	.	8B/	.	8g#X/	.	.	.	.	.	.	(4B\	.	.	4g#X\	.	.	.	.	.	.	.	.	.	.	(4g#X/	.	.	.
.	.	.	8B/	.	8g#/	.	4dd#\	.	.	.	.	.	.	.	.	.	.	.	.	.	.	.	.	.	.	.	.	.	.
8r	.	.	8c/	.	8a/	.	.	.	.	.	.	4c\)	.	.	4a\	.	.	.	.	.	.	.	.	.	.	4a/)	.	.	.
16r	.	.	8c/J	.	8a/J	.	8dd#\	.	.	.	.	.	.	.	.	.	.	.	.	.	.	.	.	.	.	.	.	.	.
16E\	.	.	.	.	.	.	.	.	.	.	.	.	.	.	.	.	.	.	.	.	.	.	.	.	.	.	.	.	.
=74	=74	=74	=74	=74	=74	=74	=74	=74	=74	=74	=74	=74	=74	=74	=74	=74	=74	=74	=74	=74	=74	=74	=74	=74	=74	=74	=74	=74	=74
4E\	.	.	4B/	.	4g#X/	.	4ee\|	.	4E\	-biſ-	.	4B\	-biſ	.	4g#X\	-biſ	.	4ee\	-bis	.	.	.	.	.	2.ryy	4g#X/	.	4ee\	.
*	*	*	*	*	*	*	*	*	*	*	*	*	*	*	*	*	*	*	*	*	*	*	*	*	*	*tremolo	*	*tremolo	*
!	!	!	!	!	!	!	!	!	!	!	!	!	!	!	!	!	!	!	!	!	!	!	!	!	!	!LO:TX:b:t=....	!	!LO:TX:a:t=....	!
4EE/	.	.	4e\	.	4B/	.	4g#X/|	.	4r	.	.	4r	.	.	4r	.	.	4r	.	.	.	.	.	.	.	8g#/L	.	8ee\L	.
.	.	.	.	.	.	.	.	.	.	.	.	.	.	.	.	.	.	.	.	.	.	.	.	.	.	8g#/	.	8ee\	.
8r	.	.	8.r	.	8r	.	8r	.	4r	.	.	4r	.	.	4r	.	.	4r	.	.	.	.	.	.	.	8g#/	.	8ee\	.
16r	.	.	.	.	16r	.	16r	f	.	.	.	.	.	.	.	.	.	.	.	.	.	.	.	.	.	8g#/J	.	8ee\J	.
16E\	.	f	16e\	.	16b\	.	16gg#X\|	.	.	.	.	.	.	.	.	.	.	.	.	.	.	.	.	.	.	.	.	.	.
*	*	*	*	*	*	*	*	*	*	*	*	*	*	*	*	*	*	*	*	*	*	*	*	*	*	*Xtremolo	*	*Xtremolo	*
=75	=75	=75	=75	=75	=75	=75	=75	=75	=75	=75	=75	=75	=75	=75	=75	=75	=75	=75	=75	=75	=75	=75	=75	=75	=75	=75	=75	=75	=75
!	!	!	!	!	!	!	!	!	!	!	!	!	!	!	!	!	!	!	!	!	!	!	!	!	!	!	!LO:DY:t=for	!	!LO:DY:t=for
4e\	.	.	4B/	.	4g#X/	.	4ee\|	.	2.r	.	.	2.r	.	.	2.r	.	.	2.r	.	.	2.r	2.r	.	2.r	2.ryy	4g#X/	f	4ee\	f
4E\	.	.	4B/	.	4ee 4b 4g#/	.	4ee 4b 4g#X/	.	.	.	.	.	.	.	.	.	.	.	.	.	.	.	.	.	.	4b/	.	4gg#X\	.
4r	.	.	4r	.	4r	.	4r	.	.	.	.	.	.	.	.	.	.	.	.	.	.	.	.	.	.	4r	.	4r	.
==	==	==	==	==	==	==	==	==	==	==	==	==	==	==	==	==	==	==	==	==	==	==	==	==	==	==	==	==	==
*-	*-	*-	*-	*-	*-	*-	*-	*-	*-	*-	*-	*-	*-	*-	*-	*-	*-	*-	*-	*-	*-	*-	*-	*-	*-	*-	*-	*-	*-
!!!system-decoration: [g1][g2]s6[g3][g4]s14
!!!RDF**kern: < = below
!!!RDF**dynam: p = "po:"
!!!RDF**dynam: f = "fo:"
!!!AIN: 1 alto 4 empty 2 oboe 1 organ 1 tenor 1 timpa 1 viola 2 violn 1 vox
!!!ENC: Marta Lawrence
!!!END: 2021-01-20
!!!ENC: Berenika Jozajtis
!!!END: 2021-01-18
!!!RDF**kern: | = vertical stroke
